(1003)
(Test piece 3 axes V2)
(Machine)
(  vendor: MOCMUS INC.)
(  model: 3 AXIS)
(  description: MOCMUS MINI CNC MACHINE)
(T1  D=0.125 CR=0 - ZMIN=-0.78 - flat end mill)
G90 G94
G17
G20
G28 G91 Z0
G90

(Surfacage)
S12000 M3
G54
G0 X5.135 Y0.0249
Z0.1
G1 Z-0.035 F40
G18 G3 X5.125 Z-0.045 I-0.01 K0
G1 X-0.25
G17 G2 X-0.25 Y0.1115 I0 J0.0433
G1 X5.125
G3 X5.125 Y0.1981 I0 J0.0433
G1 X-0.25
G2 X-0.25 Y0.2846 I0 J0.0433
G1 X5.125
G3 X5.125 Y0.3712 I0 J0.0433
G1 X-0.25
G2 X-0.25 Y0.4578 I0 J0.0433
G1 X5.125
G3 X5.125 Y0.5443 I0 J0.0433
G1 X-0.25
G2 X-0.25 Y0.6309 I0 J0.0433
G1 X5.125
G3 X5.125 Y0.7175 I0 J0.0433
G1 X-0.25
G2 X-0.25 Y0.804 I0 J0.0433
G1 X5.125
G3 X5.125 Y0.8906 I0 J0.0433
G1 X-0.25
G2 X-0.25 Y0.9772 I0 J0.0433
G1 X5.125
G3 X5.125 Y1.0637 I0 J0.0433
G1 X-0.25
G2 X-0.25 Y1.1503 I0 J0.0433
G1 X5.125
G3 X5.125 Y1.2368 I0 J0.0433
G1 X-0.25
G2 X-0.25 Y1.3234 I0 J0.0433
G1 X5.125
G3 X5.125 Y1.41 I0 J0.0433
G1 X-0.25
G2 X-0.25 Y1.4965 I0 J0.0433
G1 X5.125
G3 X5.125 Y1.5831 I0 J0.0433
G1 X-0.25
G2 X-0.25 Y1.6697 I0 J0.0433
G1 X5.125
G3 X5.125 Y1.7562 I0 J0.0433
G1 X-0.25
G2 X-0.25 Y1.8428 I0 J0.0433
G1 X5.125
G3 X5.125 Y1.9294 I0 J0.0433
G1 X-0.25
G2 X-0.25 Y2.0159 I0 J0.0433
G1 X5.125
G3 X5.125 Y2.1025 I0 J0.0433
G1 X-0.25
G2 X-0.25 Y2.1891 I0 J0.0433
G1 X5.125
G3 X5.125 Y2.2756 I0 J0.0433
G1 X-0.25
G2 X-0.25 Y2.3622 I0 J0.0433
G1 X5.125
G18 G2 X5.135 Z-0.035 I0 K0.01
G0 Z0.1
Y0.0249
G1 Z-0.105 F40
G3 X5.125 Z-0.115 I-0.01 K0
G1 X-0.25
G17 G2 X-0.25 Y0.1115 I0 J0.0433
G1 X5.125
G3 X5.125 Y0.1981 I0 J0.0433
G1 X-0.25
G2 X-0.25 Y0.2846 I0 J0.0433
G1 X5.125
G3 X5.125 Y0.3712 I0 J0.0433
G1 X-0.25
G2 X-0.25 Y0.4578 I0 J0.0433
G1 X5.125
G3 X5.125 Y0.5443 I0 J0.0433
G1 X-0.25
G2 X-0.25 Y0.6309 I0 J0.0433
G1 X5.125
G3 X5.125 Y0.7175 I0 J0.0433
G1 X-0.25
G2 X-0.25 Y0.804 I0 J0.0433
G1 X5.125
G3 X5.125 Y0.8906 I0 J0.0433
G1 X-0.25
G2 X-0.25 Y0.9772 I0 J0.0433
G1 X5.125
G3 X5.125 Y1.0637 I0 J0.0433
G1 X-0.25
G2 X-0.25 Y1.1503 I0 J0.0433
G1 X5.125
G3 X5.125 Y1.2368 I0 J0.0433
G1 X-0.25
G2 X-0.25 Y1.3234 I0 J0.0433
G1 X5.125
G3 X5.125 Y1.41 I0 J0.0433
G1 X-0.25
G2 X-0.25 Y1.4965 I0 J0.0433
G1 X5.125
G3 X5.125 Y1.5831 I0 J0.0433
G1 X-0.25
G2 X-0.25 Y1.6697 I0 J0.0433
G1 X5.125
G3 X5.125 Y1.7562 I0 J0.0433
G1 X-0.25
G2 X-0.25 Y1.8428 I0 J0.0433
G1 X5.125
G3 X5.125 Y1.9294 I0 J0.0433
G1 X-0.25
G2 X-0.25 Y2.0159 I0 J0.0433
G1 X5.125
G3 X5.125 Y2.1025 I0 J0.0433
G1 X-0.25
G2 X-0.25 Y2.1891 I0 J0.0433
G1 X5.125
G3 X5.125 Y2.2756 I0 J0.0433
G1 X-0.25
G2 X-0.25 Y2.3622 I0 J0.0433
G1 X5.125
G18 G2 X5.135 Z-0.105 I0 K0.01
G0 Z0.1
Y0.0249
G1 Z-0.115 F40
G3 X5.125 Z-0.125 I-0.01 K0
G1 X-0.25 F20
G17 G2 X-0.25 Y0.1115 I0 J0.0433 F40
G1 X5.125 F20
G3 X5.125 Y0.1981 I0 J0.0433 F40
G1 X-0.25 F20
G2 X-0.25 Y0.2846 I0 J0.0433 F40
G1 X5.125 F20
G3 X5.125 Y0.3712 I0 J0.0433 F40
G1 X-0.25 F20
G2 X-0.25 Y0.4578 I0 J0.0433 F40
G1 X5.125 F20
G3 X5.125 Y0.5443 I0 J0.0433 F40
G1 X-0.25 F20
G2 X-0.25 Y0.6309 I0 J0.0433 F40
G1 X5.125 F20
G3 X5.125 Y0.7175 I0 J0.0433 F40
G1 X-0.25 F20
G2 X-0.25 Y0.804 I0 J0.0433 F40
G1 X5.125 F20
G3 X5.125 Y0.8906 I0 J0.0433 F40
G1 X-0.25 F20
G2 X-0.25 Y0.9772 I0 J0.0433 F40
G1 X5.125 F20
G3 X5.125 Y1.0637 I0 J0.0433 F40
G1 X-0.25 F20
G2 X-0.25 Y1.1503 I0 J0.0433 F40
G1 X5.125 F20
G3 X5.125 Y1.2368 I0 J0.0433 F40
G1 X-0.25 F20
G2 X-0.25 Y1.3234 I0 J0.0433 F40
G1 X5.125 F20
G3 X5.125 Y1.41 I0 J0.0433 F40
G1 X-0.25 F20
G2 X-0.25 Y1.4965 I0 J0.0433 F40
G1 X5.125 F20
G3 X5.125 Y1.5831 I0 J0.0433 F40
G1 X-0.25 F20
G2 X-0.25 Y1.6697 I0 J0.0433 F40
G1 X5.125 F20
G3 X5.125 Y1.7562 I0 J0.0433 F40
G1 X-0.25 F20
G2 X-0.25 Y1.8428 I0 J0.0433 F40
G1 X5.125 F20
G3 X5.125 Y1.9294 I0 J0.0433 F40
G1 X-0.25 F20
G2 X-0.25 Y2.0159 I0 J0.0433 F40
G1 X5.125 F20
G3 X5.125 Y2.1025 I0 J0.0433 F40
G1 X-0.25 F20
G2 X-0.25 Y2.1891 I0 J0.0433 F40
G1 X5.125 F20
G3 X5.125 Y2.2756 I0 J0.0433 F40
G1 X-0.25 F20
G2 X-0.25 Y2.3622 I0 J0.0433 F40
G1 X5.125 F20
G18 G2 X5.135 Z-0.115 I0 K0.01 F40
G0 Z0.1
G17

(Degrossissage externe)
G0 X-0.0098 Y-0.1331
Z-0.0246
Z-0.1138
G1 Z-0.205 F40
G3 X0 Y-0.0651 I-0.3091 J0.0792
G1 Y-0.0614
X0.0082 Y-0.0332
G3 X0.0167 Y0.0836 I-0.6498 J0.1058
X0.0175 Y0.2596 I-9.4631 J0.1315
G1 Y1.8913
X0.0189 Y1.8947
X0.0291 Y1.9052
X0.0547 Y1.9197
X0.0833 Y1.9262
G2 X0.2004 Y1.932 I0.1068 J-0.9604
G1 X0.2297 Y1.9323
X0.259 Y1.9324
X0.3177 Y1.9325
X0.8164
X2.019
X4.0137
X4.8167
X4.8201 Y1.9311
X4.8305 Y1.9207
X4.8448 Y1.8951
X4.8512 Y1.8665
G2 X4.857 Y1.7494 I-0.968 J-0.1068
G1 X4.8573 Y1.7201
X4.8574 Y1.6907
X4.8575 Y1.6321
Y1.1334
Y0.7521
Y0.0591
X4.8561 Y0.0557
X4.846 Y0.045
X4.8206 Y0.0304
X4.792 Y0.0239
G2 X4.6749 Y0.018 I-0.1068 J0.9529
G1 X4.6455 Y0.0177
X4.6162 Y0.0176
X4.5575 Y0.0175
X4.0882
X3.5895
X1.5949
X0.1356
X0.1322 Y0.0189
X0.122 Y0.0295
X0.1087 Y0.0556
X0.1029 Y0.0844
G2 X0.0979 Y0.2016 I1.0328 J0.1023
G1 X0.0977 Y0.2309
X0.0975 Y0.2896
Y0.5242
Y1.8039
X0.1004 Y1.8106
X0.11 Y1.8217
X0.1347 Y1.8374
X0.1631 Y1.8448
G2 X0.2802 Y1.8518 I0.1085 J-0.8233
G1 X0.3095 Y1.8522
X0.3388 Y1.8523
X0.3975 Y1.8525
X0.6028
X0.7788
X2.7735
X4.7278
X4.7347 Y1.8501
X4.7461 Y1.8408
X4.7622 Y1.8163
X4.7696 Y1.7879
G2 X4.7768 Y1.6709 I-0.8092 J-0.1085
G1 X4.7772 Y1.6416
X4.7773 Y1.6123
X4.7775 Y1.5536
Y1.3483
Y0.1456
X4.7746 Y0.1388
X4.7648 Y0.1279
X4.7399 Y0.1124
X4.7115 Y0.1051
G2 X4.5945 Y0.0981 I-0.1085 J0.8315
G1 X4.5652 Y0.0978
X4.5358 Y0.0977
X4.5065 Y0.0976
X4.4185 Y0.0975
X2.5118
X0.5172
X0.2275
X0.2239 Y0.0981
X0.2175 Y0.1017
X0.2069 Y0.1118
X0.1918 Y0.137
X0.1848 Y0.1655
G2 X0.1781 Y0.2825 I0.8645 J0.1081
G1 X0.1778 Y0.3118
X0.1776 Y0.3412
X0.1775 Y0.3998
Y0.6386
X0.1774 Y0.6405
X0.177 Y0.6422
X0.1763 Y0.6439
G2 X0.1663 Y0.6721 I0.1569 J0.0714
G1 X0.1423 Y0.752
X0.1404 Y0.7586
X0.1373 Y0.772
X0.1357 Y0.7786
X0.123 Y0.8652
X0.1199 Y0.8875
G2 X0.1196 Y0.9983 I3.0386 J0.0642
G1 X0.1206 Y1.0183
X0.1343 Y1.1115
G2 X0.1434 Y1.1514 I0.199 J-0.0245
G1 X0.1599 Y1.2065
G3 X0.1759 Y1.3223 I-0.4184 J0.1171
X0.1775 Y1.4983 I-5.8738 J0.1398
G1 Y1.722
X0.1801 Y1.7288
X0.1893 Y1.7403
X0.2137 Y1.7566
X0.242 Y1.7642
X0.2711 Y1.7682
G2 X0.447 Y1.7722 I0.1381 J-2.1912
G1 X0.535 Y1.7725
X0.8325
X0.8335 Y1.7726
X0.9057 Y1.7809
X0.9124 Y1.7815
G2 X1.0323 Y1.7781 I-0.0034 J-2.2114
G3 X1.2082 Y1.7728 I0.1498 J2.0562
G1 X1.2668 Y1.7725
X1.5602
X3.0268
X3.3305
X3.3312
X3.332 Y1.7726
X3.3327 Y1.7727
X3.3583 Y1.7772
X3.3632 Y1.7778
X3.3832 Y1.7788
X3.4698 Y1.7815
G2 X3.5097 Y1.7791 I0.0053 J-0.2486
G3 X3.7149 Y1.7728 I0.1671 J2.0873
G1 X3.8029 Y1.7725
X4.6462
X4.6497 Y1.7714
X4.6561 Y1.7679
X4.6669 Y1.7579
X4.6823 Y1.7329
X4.6896 Y1.7045
G2 X4.6968 Y1.5875 I-0.8189 J-0.109
X4.6975 Y1.2942 I-22.6279 J-0.1996
G1 Y0.9422
Y0.2272
X4.6946 Y0.2205
X4.6852 Y0.2092
X4.6606 Y0.1932
X4.6323 Y0.1856
G2 X4.5153 Y0.1782 I-0.1091 J0.7929
X4.2513 Y0.1775 I-0.1847 J19.54
G1 X3.7585
X3.7568 Y0.1774
X3.7551 Y0.177
X3.7535 Y0.1765
G2 X3.7095 Y0.1597 I-0.1423 J0.3067
G1 X3.6229 Y0.1366
X3.6029 Y0.1318
G2 X3.4897 Y0.1188 I-0.9331 J7.5916
G1 X3.4764 Y0.1186
X3.4698 Y0.1185
X3.3832 Y0.1212
X3.3632 Y0.1222
G2 X3.25 Y0.1422 I0.5232 J3.3055
G1 X3.2353 Y0.1462
X3.23 Y0.1479
X3.1967 Y0.159
X3.1684 Y0.1669
X3.1396 Y0.1719
G3 X2.9931 Y0.1771 I-0.1209 J-1.3485
G1 X2.9637 Y0.1774
X2.9051 Y0.1775
X2.2597
X1.2607
X1.2594 Y0.1774
X1.2581 Y0.1772
X1.2568 Y0.1769
X1.1655 Y0.1464
X1.1588 Y0.1443
X1.1522 Y0.1427
X1.1358 Y0.1395
X1.0523 Y0.1246
X1.0456 Y0.1236
X1.0256 Y0.1214
X0.939 Y0.1188
G2 X0.8924 Y0.1207 I-0.0145 J0.2122
G1 X0.8125 Y0.1298
X0.8058 Y0.1307
X0.7859 Y0.1343
G2 X0.686 Y0.1611 I0.8807 J3.4852
G3 X0.5699 Y0.176 I-0.1152 J-0.4364
X0.3096 Y0.1774 I-0.178 J-9.3627
G1 X0.306 Y0.1783
X0.2995 Y0.1817
X0.2885 Y0.1914
X0.2729 Y0.2162
X0.2654 Y0.2446
G2 X0.2582 Y0.3616 I0.8103 J0.109
G3 X0.2573 Y0.4901 I-10.1289 J-0.0033
G1 X0.2566 Y0.4924
X0.2555 Y0.4946
X0.2263 Y0.539
X0.216 Y0.5589
X0.1763 Y0.6439
G2 X0.1661 Y0.6731 I0.1526 J0.0701
G1 X0.1423 Y0.752
X0.1404 Y0.7586
X0.1373 Y0.772
X0.1357 Y0.7786
X0.123 Y0.8652
X0.1199 Y0.8875
G2 X0.1201 Y1.0116 I2.1844 J0.0589
G1 X0.1206 Y1.0183
X0.1333 Y1.1048
G2 X0.1511 Y1.1768 I0.3553 J-0.0497
G1 X0.1599 Y1.2065
G2 X0.177 Y1.258 I0.3424 J-0.0856
G1 X0.2176 Y1.3445
X0.2198 Y1.3485
X0.2264 Y1.3604
X0.2373 Y1.3822
X0.2458 Y1.4073
X0.2513 Y1.4361
G3 X0.257 Y1.5532 I-1.0268 J0.1085
G1 X0.2573 Y1.5826
X0.2574 Y1.6119
Y1.6412
X0.2598 Y1.6482
X0.2688 Y1.6598
X0.2931 Y1.6763
X0.3213 Y1.6841
X0.3504 Y1.688
G2 X0.5263 Y1.6922 I0.1383 J-2.1449
G1 X0.5718 Y1.6925
X0.5735 Y1.6926
X0.5752 Y1.6929
X0.5768 Y1.6935
G2 X0.6793 Y1.7373 I1.8281 J-4.1383
G1 X0.6993 Y1.7427
X0.7792 Y1.764
G2 X0.8335 Y1.7725 I0.0807 J-0.336
G1 X0.836 Y1.7731
X0.8384 Y1.7742
X0.8404 Y1.7757
X0.8422 Y1.7776
X0.844 Y1.7796
X0.8462 Y1.7812
X0.8487 Y1.7822
X0.8501 Y1.7825 Z-0.2049
X0.8514 Y1.7827 Z-0.2047
X0.8541 Y1.7829 Z-0.2038
X0.8564 Y1.783 Z-0.2023
X0.8584 Y1.7832 Z-0.2003
X0.8599 Y1.7833 Z-0.1979
X0.8608 Z-0.1953
X0.8611 Y1.7834 Z-0.1925
G0 Z-0.0246
X0.1935 Y1.3325
Z-0.18
G1 Z-0.1925 F40
X0.1938 Y1.3327 Z-0.1953
X0.1946 Y1.3332 Z-0.1979
X0.1959 Y1.3339 Z-0.2003
X0.1976 Y1.3349 Z-0.2023
X0.1996 Y1.3361 Z-0.2038
X0.2019 Y1.3374 Z-0.2047
X0.2043 Y1.3388 Z-0.205
G3 X0.2264 Y1.3604 I-0.0311 J0.054
G1 X0.2287 Y1.3644
X0.2331 Y1.3714
X0.2811 Y1.4443
X0.2864 Y1.4523
X0.2906 Y1.4576
X0.2962 Y1.4643
X0.3048 Y1.4755
X0.3134 Y1.4906
X0.322 Y1.5119
X0.3292 Y1.5404
X0.3311 Y1.5549
X0.3319 Y1.5622
X0.3351 Y1.5688
X0.3445 Y1.5801
X0.3689 Y1.5963
X0.3972 Y1.604
X0.4263 Y1.608
X0.4396 Y1.6089
X0.4422 Y1.6094
X0.4446 Y1.6104
X0.4467 Y1.6118
G3 X0.4485 Y1.6285 I-0.0084 J0.0093
G1 X0.4468 Y1.6299 Z-0.2048
X0.4452 Y1.6312 Z-0.2042
X0.4437 Y1.6324 Z-0.2033
X0.442 Y1.6328 Z-0.2021
X0.4405 Y1.6332 Z-0.2006
X0.4393 Y1.6334 Z-0.1988
X0.4384 Y1.6336 Z-0.1969
X0.4378 Z-0.1947
X0.4376 Z-0.1925
G0 Z-0.0246
X0.2586 Y1.4432
Z-0.18
G1 Z-0.1925 F40
X0.2589 Y1.4433 Z-0.1953
X0.2598 Y1.4436 Z-0.1979
X0.2612 Y1.4441 Z-0.2003
X0.263 Y1.4448 Z-0.2023
X0.2653 Y1.4455 Z-0.2038
X0.2678 Y1.4464 Z-0.2047
X0.2704 Y1.4473 Z-0.205
G3 X0.2962 Y1.4643 I-0.0203 J0.0589
G2 X0.3672 Y1.5442 I2.3273 J-1.996
G1 X0.373 Y1.5496
G2 X0.4661 Y1.6274 I1.5512 J-1.7633
G1 X0.4715 Y1.6307
X0.5461 Y1.6766
X0.5661 Y1.6887
X0.5728 Y1.6917
X0.5768 Y1.6935
G3 X0.5831 Y1.7091 I-0.0055 J0.0112
G1 X0.5818 Y1.7109 Z-0.2048
X0.5807 Y1.7126 Z-0.2042
X0.5795 Y1.7142 Z-0.2033
X0.5778 Y1.7151 Z-0.2019
X0.5764 Y1.7158 Z-0.2002
X0.5752 Y1.7164 Z-0.1982
X0.5744 Y1.7168 Z-0.196
X0.574 Y1.717 Z-0.1936
Z-0.1925
G0 Z-0.0246
X1.004 Y1.7895
Z-0.1925
G1 Z-0.205 F40
G3 X1.0323 Y1.7779 I0.0372 J0.05
G1 X1.0456 Y1.7764
G2 X1.1527 Y1.7572 I-0.4306 J-2.7087
X1.2736 Y1.7173 I-0.7043 J-2.3323
G1 X1.2854 Y1.7129
X1.3133 Y1.7041
X1.3421 Y1.6986
G3 X1.4593 Y1.693 I0.1083 J1.0382
G1 X1.4886 Y1.6927
X1.5179 Y1.6926
X1.5766 Y1.6925
X2.0459
X3.0574
X3.0589 Y1.6926
X3.0603 Y1.6928
X3.0618 Y1.6933
G2 X3.2499 Y1.758 I0.9923 J-2.579
G1 X3.2566 Y1.7591
X3.3327 Y1.7727
G3 X3.341 Y1.7783 I-0.0022 J0.0123
G1 X3.3427 Y1.7804
X3.3448 Y1.782
X3.3472 Y1.7832
X3.3489 Y1.7836 Z-0.2049
X3.3506 Y1.784 Z-0.2045
X3.353 Y1.7842 Z-0.2035
X3.3553 Y1.7843 Z-0.202
X3.3571 Y1.7845 Z-0.2
X3.3585 Y1.7846 Z-0.1977
X3.3593 Y1.7847 Z-0.1952
X3.3596 Z-0.1925
G0 Z-0.0246
X1.2527 Y1.7411
Z-0.18
G1 Z-0.1925 F40
X1.2529 Y1.7409 Z-0.1953
X1.2535 Y1.7402 Z-0.1979
X1.2544 Y1.739 Z-0.2003
X1.2557 Y1.7375 Z-0.2023
X1.2572 Y1.7356 Z-0.2038
X1.2588 Y1.7336 Z-0.2047
X1.2606 Y1.7314 Z-0.205
G3 X1.2854 Y1.7129 I0.0485 J0.0391
G1 X1.4452 Y1.6536
X1.4585 Y1.6495
X1.4652 Y1.6476
X1.5318 Y1.6287
G3 X1.6479 Y1.6139 I0.1156 J0.4453
X1.8532 Y1.6125 I0.1548 J7.454
G1 X2.8094
X2.8105 Y1.6126
X2.8117 Y1.6127
X2.8128 Y1.613
X2.937 Y1.6482
X2.9436 Y1.6502
X2.9636 Y1.6569
X3.0618 Y1.6933
G3 X3.069 Y1.7085 I-0.0048 J0.0116
G1 X3.0679 Y1.7103 Z-0.2048
X3.0668 Y1.7121 Z-0.2042
X3.0658 Y1.7137 Z-0.2033
X3.0641 Y1.7147 Z-0.2019
X3.0627 Y1.7155 Z-0.2002
X3.0616 Y1.7162 Z-0.1982
X3.0609 Y1.7166 Z-0.196
X3.0605 Y1.7168 Z-0.1936
X3.0604 Y1.7169 Z-0.1925
G0 Z-0.0246
X1.497 Y1.6543
Z-0.18
G1 Z-0.1925 F40
X1.4972 Y1.654 Z-0.1953
X1.4979 Y1.6534 Z-0.1979
X1.4989 Y1.6523 Z-0.2003
X1.5002 Y1.6508 Z-0.2023
X1.5019 Y1.6491 Z-0.2038
X1.5037 Y1.6472 Z-0.2047
X1.5056 Y1.6452 Z-0.205
G3 X1.5318 Y1.6287 I0.0452 J0.0428
G1 X1.6185 Y1.6041
X1.625 Y1.6023
X1.6459 Y1.5974
X1.7982 Y1.567
X1.8048 Y1.5657
X1.8248 Y1.5621
X1.9979 Y1.5414
X2.0046 Y1.5407
G3 X2.1844 Y1.5332 I0.3544 J6.3387
G1 X2.2044 Y1.5327
X2.3776 Y1.5396
X2.3842 Y1.5399
X2.4042 Y1.5417
G3 X2.584 Y1.5634 I-0.9876 J8.9633
G1 X2.7572 Y1.598
X2.7638 Y1.5995
X2.7838 Y1.6048
X2.8128 Y1.613
G3 X2.8212 Y1.6275 I-0.0038 J0.0119
G1 X2.8202 Y1.6294 Z-0.2048
X2.8193 Y1.6313 Z-0.2042
X2.8184 Y1.633 Z-0.2033
X2.8168 Y1.6342 Z-0.2019
X2.8155 Y1.6351 Z-0.2002
X2.8144 Y1.6358 Z-0.1982
X2.8137 Y1.6363 Z-0.196
X2.8134 Y1.6366 Z-0.1936
X2.8133 Z-0.1925
G0 Z-0.0246
X3.4815 Y1.791
Z-0.1925
G1 Z-0.205 F40
G3 X3.5097 Y1.7791 I0.0375 J0.0498
G1 X3.5896 Y1.7699
X3.5963 Y1.7691
X3.6029 Y1.7682
G2 X3.7206 Y1.7372 I-0.5774 J-2.4341
G1 X3.7295 Y1.7337
X3.7371 Y1.7306
X3.768 Y1.7173
X3.7955 Y1.7071
X3.8241 Y1.7002
G3 X3.9411 Y1.6932 I0.1058 J0.7862
G1 X3.9704 Y1.6928
X3.9997 Y1.6926
X4.0584 Y1.6925
X4.3224
X4.5644
X4.568 Y1.6918
X4.5746 Y1.6886
X4.5857 Y1.6791
X4.6017 Y1.6545
X4.6093 Y1.6261
G2 X4.6168 Y1.5091 I-0.7905 J-0.1093
X4.6175 Y1.3331 I-11.8133 J-0.136
G1 Y0.5412
Y0.3102
X4.6168 Y0.3066
X4.6135 Y0.3
X4.6038 Y0.289
X4.5791 Y0.2732
X4.5508 Y0.2656
G2 X4.4338 Y0.2582 I-0.1093 J0.7972
X4.2578 Y0.2575 I-0.136 J11.9445
G1 X3.9129
X3.9106 Y0.2573
X3.9084 Y0.2567
X3.9063 Y0.2556
X3.8427 Y0.2165
G2 X3.8094 Y0.2005 I-0.115 J0.1974
G1 X3.7535 Y0.1765
G3 X3.7471 Y0.161 I0.0053 J-0.0113
G1 X3.7483 Y0.1592 Z-0.2048
X3.7495 Y0.1575 Z-0.2042
X3.7505 Y0.1559 Z-0.2033
X3.7523 Y0.155 Z-0.2019
X3.7537 Y0.1542 Z-0.2002
X3.7548 Y0.1536 Z-0.1982
X3.7556 Y0.1532 Z-0.196
X3.756 Y0.153 Z-0.1936
X3.7561 Z-0.1925
G0 Z-0.0246
X3.7369 Y1.7471
Z-0.18
G1 Z-0.1925 F40
X3.7371 Y1.7469 Z-0.1953
X3.7376 Y1.7461 Z-0.1979
X3.7385 Y1.7449 Z-0.2003
X3.7397 Y1.7433 Z-0.2023
X3.741 Y1.7414 Z-0.2038
X3.7426 Y1.7392 Z-0.2047
X3.7442 Y1.737 Z-0.205
G3 X3.768 Y1.7173 I0.0504 J0.0366
G1 X3.8227 Y1.6938
X3.8419 Y1.684
X3.9026 Y1.6466
X3.9232 Y1.6354
X3.9454 Y1.6268
X3.974 Y1.6201
G3 X4.091 Y1.6132 I0.1062 J0.8026
G1 X4.1203 Y1.6128
X4.1496 Y1.6126
X4.2083 Y1.6125
X4.443
X4.4833
X4.487
X4.4937 Y1.6096
X4.5051 Y1.6003
X4.5214 Y1.5759
X4.5291 Y1.5476
X4.5331 Y1.5186
G2 X4.5372 Y1.3427 I-2.1569 J-0.1385
G1 X4.5375 Y1.2547
Y0.3893
X4.5364 Y0.3858
X4.5329 Y0.3794
X4.523 Y0.3686
X4.4981 Y0.353
X4.4697 Y0.3456
X4.4407 Y0.3418
X4.4114 Y0.3398
G2 X4.1767 Y0.3376 I-0.1731 J6.0669
G1 X4.0167 Y0.3375
X4.0138 Y0.3372
X4.0111 Y0.3362
X4.0087 Y0.3346
X3.9426 Y0.2793
X3.9359 Y0.2743
X3.9293 Y0.2698
X3.9063 Y0.2556
G3 X3.9022 Y0.2394 I0.0069 J-0.0104
G1 X3.9037 Y0.2378 Z-0.2048
X3.9051 Y0.2362 Z-0.2042
X3.9064 Y0.2348 Z-0.2033
X3.9082 Y0.2342 Z-0.2019
X3.9097 Y0.2336 Z-0.2002
X3.911 Y0.2332 Z-0.1982
X3.9118 Y0.2329 Z-0.196
X3.9122 Y0.2328 Z-0.1936
Z-0.1925
G0 Z-0.0246
X3.8761 Y1.6807
Z-0.18
G1 Z-0.1925 F40
X3.8763 Y1.6804 Z-0.1953
X3.8767 Y1.6796 Z-0.1979
X3.8774 Y1.6783 Z-0.2003
X3.8783 Y1.6765 Z-0.2023
X3.8794 Y1.6744 Z-0.2038
X3.8806 Y1.6721 Z-0.2047
X3.8819 Y1.6696 Z-0.205
G3 X3.9026 Y1.6466 I0.0552 J0.0289
G2 X3.9559 Y1.6096 I-0.1443 J-0.264
G1 X3.9959 Y1.5761
X4.0105 Y1.565
X4.0259 Y1.5564
X4.0478 Y1.5477
X4.0763 Y1.5407
G3 X4.1932 Y1.5333 I0.1072 J0.7614
X4.4059 Y1.5325 I0.1524 J13.2536
G1 X4.4129 Y1.5302
X4.4245 Y1.5213
X4.4411 Y1.4971
X4.449 Y1.4688
X4.453 Y1.4398
G2 X4.4572 Y1.2932 I-1.7414 J-0.1229
G1 X4.4574 Y1.2639
X4.4575 Y1.1759
Y0.4719
X4.4574 Y0.4682
X4.4546 Y0.4615
X4.4454 Y0.45
X4.4211 Y0.4337
X4.3928 Y0.4259
X4.3637 Y0.422
G2 X4.1878 Y0.4178 I-0.1385 J2.1469
G1 X4.0998 Y0.4175
X4.0935
X4.09 Y0.417
X4.0868 Y0.4156
X4.0842 Y0.4133
X4.0419 Y0.3659
G2 X4.0086 Y0.3347 I-0.1646 J0.1422
G1 X4.0068 Y0.3327
X4.0055 Y0.3304
X4.0047 Y0.3279
X4.0045 Y0.3252
X4.0048 Y0.3226
X4.0056 Y0.3201
X4.007 Y0.3179
X4.0086 Y0.3165 Z-0.2048
X4.0102 Y0.3152 Z-0.2042
X4.0117 Y0.314 Z-0.2033
X4.0134 Y0.3136 Z-0.2021
X4.0149 Y0.3133 Z-0.2006
X4.0161 Y0.313 Z-0.1988
X4.017 Y0.3128 Z-0.1969
X4.0176 Z-0.1947
X4.0178 Z-0.1925
G0 Z-0.0246
X3.9746 Y1.6137
Z-0.18
G1 Z-0.1925 F40
X3.9747 Y1.6134 Z-0.1953
X3.975 Y1.6125 Z-0.1979
X3.9755 Y1.6111 Z-0.2003
X3.9761 Y1.6092 Z-0.2023
X3.9769 Y1.607 Z-0.2038
X3.9778 Y1.6045 Z-0.2047
X3.9787 Y1.6019 Z-0.205
G3 X3.9959 Y1.5761 I0.0588 J0.0206
G2 X4.0358 Y1.5409 I-0.3232 J-0.4067
G1 X4.0685 Y1.5042
X4.0776 Y1.495
X4.0887 Y1.4865
X4.1041 Y1.4776
X4.1258 Y1.4687
X4.1543 Y1.4614
G3 X4.2712 Y1.4534 I0.1085 J0.724
G1 X4.3005 Y1.4529
X4.3262 Y1.4528
X4.3331 Y1.4503
X4.3447 Y1.4413
X4.3612 Y1.4171
X4.369 Y1.3888
X4.373 Y1.3597
G2 X4.3772 Y1.1838 I-2.1326 J-0.1385
G1 X4.3775 Y1.0958
Y0.5495
X4.3765 Y0.546
X4.373 Y0.5395
X4.3631 Y0.5287
X4.3383 Y0.5131
X4.3099 Y0.5056
G2 X4.1929 Y0.4982 I-0.1094 J0.8029
G1 X4.1636 Y0.4978
X4.1533
X4.1493 Y0.4971
X4.1457 Y0.4952
X4.1429 Y0.4922
X4.1167 Y0.4524
G2 X4.0842 Y0.4133 I-0.2714 J0.193
G1 X4.0829 Y0.4116
X4.082 Y0.4096
X4.0815 Y0.4075
X4.0813 Y0.4053
X4.0815 Y0.4029
X4.0822 Y0.4006
X4.0834 Y0.3984
X4.0849 Y0.3965
X4.0867 Y0.3954 Z-0.2048
X4.0885 Y0.3944 Z-0.2042
X4.0902 Y0.3934 Z-0.2033
X4.0921 Y0.3931 Z-0.2019
X4.0938 Y0.3928 Z-0.2002
X4.0952 Y0.393 Z-0.1978
X4.0961 Y0.3931 Z-0.1952
X4.0964 Z-0.1925
G0 Z-0.0246
X4.0529 Y1.5445
Z-0.18
G1 Z-0.1925 F40
Y1.5442 Z-0.1953
X4.0531 Y1.5432 Z-0.1979
X4.0534 Y1.5418 Z-0.2003
X4.0538 Y1.5398 Z-0.2023
X4.0542 Y1.5375 Z-0.2038
X4.0547 Y1.5349 Z-0.2047
X4.0553 Y1.5322 Z-0.205
G3 X4.0685 Y1.5042 I0.0612 J0.0119
G1 X4.1041 Y1.4643
X4.1096 Y1.4576
X4.1144 Y1.451
X4.1276 Y1.431
X4.1317 Y1.4255
X4.1399 Y1.4169
X4.1513 Y1.408
X4.1666 Y1.399
X4.1884 Y1.3898
X4.2167 Y1.3822
X4.2457 Y1.3779
X4.2526 Y1.3753
X4.2642 Y1.3664
X4.2809 Y1.3422
X4.2888 Y1.314
X4.2929 Y1.2849
G2 X4.2971 Y1.1384 I-1.7128 J-0.1232
G1 X4.2974 Y1.109
X4.2975 Y1.0504
Y0.669
Y0.6287
X4.2949 Y0.6218
X4.2859 Y0.6103
X4.2616 Y0.5938
X4.2333 Y0.586
X4.2043 Y0.582
X4.2017 Y0.5818
X4.1974 Y0.5807
X4.1938 Y0.5782
X4.1913 Y0.5746
X4.1871 Y0.5656
X4.1839 Y0.5589
X4.1737 Y0.539
X4.1429 Y0.4922
G3 X4.1461 Y0.4757 I0.0107 J-0.0065
G1 X4.1481 Y0.4748 Z-0.2048
X4.15 Y0.474 Z-0.2042
X4.1518 Y0.4733 Z-0.2033
X4.1536 Y0.4732 Z-0.2021
X4.1554 Y0.4735 Z-0.2001
X4.1568 Y0.4737 Z-0.1978
X4.1577 Y0.4739 Z-0.1952
X4.1579 Z-0.1925
G0 Z-0.0246
X4.118 Y1.4731
Z-0.18
G1 Z-0.1925 F40
Y1.4728 Z-0.1953
X4.1181 Y1.4718 Z-0.1979
Y1.4703 Z-0.2003
X4.1182 Y1.4684 Z-0.2023
X4.1183 Y1.466 Z-0.2038
X4.1185 Y1.4634 Z-0.2047
X4.1186 Y1.4606 Z-0.205
G3 X4.1276 Y1.431 I0.0622 J0.0029
G1 X4.169 Y1.3682
X4.1714 Y1.3644
X4.1788 Y1.3511
X4.1824 Y1.3445
X4.2228 Y1.2579
X4.2306 Y1.238
G2 X4.2623 Y1.1312 I-2.3369 J-0.7518
X4.2801 Y1.0116 I-3.0137 J-0.5117
X4.2799 Y0.8851 I-2.2983 J-0.0594
G1 X4.275 Y0.8518
X4.2642 Y0.7786
X4.2595 Y0.7586
X4.2576 Y0.752
X4.2337 Y0.6721
X4.2316 Y0.6654
X4.227 Y0.6521
X4.2244 Y0.6455
X4.1913 Y0.5746
G3 X4.1969 Y0.5588 I0.0115 J-0.0049
G1 X4.1989 Y0.5582 Z-0.2048
X4.2009 Y0.5577 Z-0.2042
X4.2028 Y0.5572 Z-0.2033
X4.2047 Y0.5577 Z-0.2019
X4.2063 Y0.5581 Z-0.2002
X4.2076 Y0.5584 Z-0.1981
X4.2084 Y0.5587 Z-0.1959
X4.2088 Y0.5588 Z-0.1935
Z-0.1925
G0 Z-0.0246
X3.2303 Y0.1319
Z-0.18
G1 Z-0.1925 F40
X3.2301 Y0.1321 Z-0.1953
X3.2295 Y0.1328 Z-0.1979
X3.2285 Y0.1339 Z-0.2003
X3.2272 Y0.1354 Z-0.2023
X3.2256 Y0.1372 Z-0.2038
X3.2239 Y0.1392 Z-0.2047
X3.2221 Y0.1413 Z-0.205
G3 X3.1967 Y0.159 I-0.0472 J-0.0407
G1 X3.1434 Y0.1768
X3.1358 Y0.1795
X3.1168 Y0.1863
X2.9836 Y0.2357
X2.9556 Y0.2445
X2.9269 Y0.2507
G3 X2.8098 Y0.257 I-0.1084 J-0.9265
G1 X2.7805 Y0.2573
X2.7512 Y0.2574
X2.6925 Y0.2575
X2.3699
X1.4848
X1.4837 Y0.2574
X1.4825 Y0.2573
X1.4814 Y0.257
X1.4662 Y0.2527
X1.4452 Y0.2464
X1.272 Y0.1822
X1.2645 Y0.1795
X1.2568 Y0.1769
G3 X1.2573 Y0.1532 I0.0044 J-0.0117
G1 X1.26 Y0.1524 Z-0.2047
X1.2625 Y0.1516 Z-0.2038
X1.2648 Y0.1509 Z-0.2023
X1.2667 Y0.1503 Z-0.2003
X1.2681 Y0.1498 Z-0.1979
X1.269 Y0.1495 Z-0.1953
X1.2693 Y0.1494 Z-0.1925
G0 Z-0.0246
X3.0162 Y0.2075
Z-0.18
G1 Z-0.1925 F40
X3.016 Y0.2078 Z-0.1953
X3.0154 Y0.2085 Z-0.1979
X3.0145 Y0.2096 Z-0.2003
X3.0133 Y0.2112 Z-0.2023
X3.0118 Y0.213 Z-0.2038
X3.0101 Y0.2151 Z-0.2047
X3.0084 Y0.2172 Z-0.205
G3 X2.9836 Y0.2357 I-0.0485 J-0.0391
G1 X2.9636 Y0.2431
X2.9436 Y0.2498
X2.937 Y0.2518
X2.7905 Y0.2934
X2.7838 Y0.2952
X2.7638 Y0.3005
X2.7572 Y0.302
X2.6373 Y0.3259
G3 X2.4913 Y0.3368 I-0.133 J-0.7982
G1 X2.4619 Y0.3372
X2.4326 Y0.3374
X2.3739 Y0.3375
X2.0806
X1.8235
X1.8227
X1.822 Y0.3374
X1.8212 Y0.3373
X1.8048 Y0.3343
X1.7959 Y0.3326
X1.645 Y0.3024
X1.6383 Y0.301
X1.625 Y0.2977
X1.6183 Y0.2959
X1.4814 Y0.257
G3 X1.4809 Y0.2334 I0.0038 J-0.0119
G1 X1.4835 Y0.2324 Z-0.2047
X1.486 Y0.2315 Z-0.2038
X1.4882 Y0.2307 Z-0.2023
X1.49 Y0.23 Z-0.2003
X1.4914 Y0.2295 Z-0.1979
X1.4923 Y0.2292 Z-0.1953
X1.4926 Y0.229 Z-0.1925
G0 Z-0.0246
X2.674 Y0.3032
Z-0.18
G1 Z-0.1925 F40
X2.6738 Y0.3034 Z-0.1953
X2.6731 Y0.304 Z-0.1979
X2.672 Y0.305 Z-0.2003
X2.6705 Y0.3063 Z-0.2023
X2.6687 Y0.3079 Z-0.2038
X2.6668 Y0.3097 Z-0.2047
X2.6647 Y0.3116 Z-0.205
G3 X2.6373 Y0.3259 I-0.0417 J-0.0463
G1 X2.584 Y0.3366
G3 X2.4042 Y0.3582 I-1.0925 J-8.3105
G1 X2.3842 Y0.3601
X2.3776 Y0.3604
X2.2044 Y0.3673
X2.1844 Y0.3668
X2.1778 Y0.3666
X2.0312 Y0.3608
X2.0246 Y0.3605
X2.0037 Y0.3592
X1.9913 Y0.3578
X1.8248 Y0.3379
X1.8212 Y0.3373
G3 X1.8114 Y0.3251 I0.0027 J-0.0122
G1 Y0.3246
Y0.3241
X1.8115 Y0.3236
X1.8123 Y0.3216 Z-0.2048
X1.813 Y0.3197 Z-0.2042
X1.8137 Y0.3179 Z-0.2033
X1.8152 Y0.3166 Z-0.2019
X1.8164 Y0.3156 Z-0.2002
X1.8174 Y0.3147 Z-0.1982
X1.818 Y0.3142 Z-0.196
X1.8184 Y0.3139 Z-0.1936
Y0.3138 Z-0.1925
G0 Z-0.0246
X0.7206 Y0.1354
Z-0.18
G1 Z-0.1925 F40
X0.7204 Y0.1356 Z-0.1953
X0.7198 Y0.1363 Z-0.1979
X0.7188 Y0.1374 Z-0.2003
X0.7174 Y0.1388 Z-0.2023
X0.7158 Y0.1406 Z-0.2038
X0.714 Y0.1425 Z-0.2047
X0.7121 Y0.1445 Z-0.205
G3 X0.686 Y0.1611 I-0.0454 J-0.0427
G1 X0.6793 Y0.163
X0.6727 Y0.1653
G2 X0.5636 Y0.2126 I1.1627 J2.829
G1 X0.5417 Y0.2261
X0.526 Y0.2347
X0.5038 Y0.2432
X0.4753 Y0.2499
G3 X0.3876 Y0.2565 I-0.1026 J-0.7796
G1 X0.3809 Y0.2597
X0.3696 Y0.2691
X0.3535 Y0.2936
X0.3458 Y0.3219
X0.3419 Y0.351
X0.3398 Y0.3802
Y0.3821
X0.3393 Y0.385
X0.3383 Y0.3877
X0.3366 Y0.39
G3 X0.3151 Y0.3802 I-0.009 J-0.0086
G1 X0.3154 Y0.3774 Z-0.2047
X0.3156 Y0.3748 Z-0.2038
X0.3159 Y0.3724 Z-0.2023
X0.3161 Y0.3704 Z-0.2003
X0.3162 Y0.369 Z-0.1979
X0.3163 Y0.368 Z-0.1953
Y0.3677 Z-0.1925
G0 Z-0.0246
X0.5682 Y0.192
Z-0.18
G1 Z-0.1925 F40
X0.5681 Y0.1923 Z-0.1953
X0.5677 Y0.1931 Z-0.1979
X0.567 Y0.1944 Z-0.2003
X0.5661 Y0.1962 Z-0.2023
X0.565 Y0.1983 Z-0.2038
X0.5637 Y0.2006 Z-0.2047
X0.5624 Y0.2031 Z-0.205
G3 X0.5417 Y0.2261 I-0.0552 J-0.0289
G1 X0.4795 Y0.2644
G2 X0.4396 Y0.2942 I0.1233 J0.2069
G1 X0.3858 Y0.3392
G2 X0.3581 Y0.3659 I0.1187 J0.1511
G1 X0.3047 Y0.4258
X0.2997 Y0.4316
X0.2864 Y0.4483
X0.2833 Y0.4524
X0.2555 Y0.4946
G3 X0.2391 Y0.4982 I-0.0102 J-0.0072
G1 X0.2375 Y0.4967 Z-0.2048
X0.236 Y0.4953 Z-0.2042
X0.2346 Y0.4939 Z-0.2033
X0.2341 Y0.4921 Z-0.2019
X0.2336 Y0.4905 Z-0.2002
X0.2332 Y0.4893 Z-0.1982
X0.2329 Y0.4885 Z-0.196
X0.2328 Y0.488 Z-0.1936
Z-0.1925
G0 Z-0.0246
X-0.0098 Y-0.1331
Z-0.1938
G1 Z-0.285 F40
G3 X0 Y-0.0651 I-0.3091 J0.0792
G1 Y-0.0614
X0.0082 Y-0.0332
G3 X0.0167 Y0.0836 I-0.6498 J0.1058
X0.0175 Y0.2596 I-9.4631 J0.1315
G1 Y1.8913
X0.0189 Y1.8947
X0.0291 Y1.9052
X0.0547 Y1.9197
X0.0833 Y1.9262
G2 X0.2004 Y1.932 I0.1068 J-0.9604
G1 X0.2297 Y1.9323
X0.259 Y1.9324
X0.3177 Y1.9325
X0.8164
X2.019
X4.0137
X4.8167
X4.8201 Y1.9311
X4.8305 Y1.9207
X4.8448 Y1.8951
X4.8512 Y1.8665
G2 X4.857 Y1.7494 I-0.968 J-0.1068
G1 X4.8573 Y1.7201
X4.8574 Y1.6907
X4.8575 Y1.6321
Y1.1334
Y0.7521
Y0.0591
X4.8561 Y0.0557
X4.846 Y0.045
X4.8206 Y0.0304
X4.792 Y0.0239
G2 X4.6749 Y0.018 I-0.1068 J0.9529
G1 X4.6455 Y0.0177
X4.6162 Y0.0176
X4.5575 Y0.0175
X4.0882
X3.5895
X1.5949
X0.1356
X0.1322 Y0.0189
X0.122 Y0.0295
X0.1087 Y0.0556
X0.1029 Y0.0844
G2 X0.0979 Y0.2016 I1.0328 J0.1023
G1 X0.0977 Y0.2309
X0.0975 Y0.2896
Y0.5242
Y1.8039
X0.1004 Y1.8106
X0.11 Y1.8217
X0.1347 Y1.8374
X0.1631 Y1.8448
G2 X0.2802 Y1.8518 I0.1085 J-0.8233
G1 X0.3095 Y1.8522
X0.3388 Y1.8523
X0.3975 Y1.8525
X0.6028
X0.7788
X2.7735
X4.7278
X4.7347 Y1.8501
X4.7461 Y1.8408
X4.7622 Y1.8163
X4.7696 Y1.7879
G2 X4.7768 Y1.6709 I-0.8092 J-0.1085
G1 X4.7772 Y1.6416
X4.7773 Y1.6123
X4.7775 Y1.5536
Y1.3483
Y0.1456
X4.7746 Y0.1388
X4.7648 Y0.1279
X4.7399 Y0.1124
X4.7115 Y0.1051
G2 X4.5945 Y0.0981 I-0.1085 J0.8315
G1 X4.5652 Y0.0978
X4.5358 Y0.0977
X4.5065 Y0.0976
X4.4185 Y0.0975
X2.5118
X0.5172
X0.2275
X0.2239 Y0.0981
X0.2175 Y0.1017
X0.2069 Y0.1118
X0.1918 Y0.137
X0.1848 Y0.1655
G2 X0.1781 Y0.2825 I0.8645 J0.1081
G1 X0.1778 Y0.3118
X0.1776 Y0.3412
X0.1775 Y0.3998
Y0.6386
X0.1774 Y0.6405
X0.177 Y0.6422
X0.1763 Y0.6439
G2 X0.1663 Y0.6721 I0.1569 J0.0714
G1 X0.1423 Y0.752
X0.1404 Y0.7586
X0.1373 Y0.772
X0.1357 Y0.7786
X0.123 Y0.8652
X0.1199 Y0.8875
G2 X0.1196 Y0.9983 I3.0386 J0.0642
G1 X0.1206 Y1.0183
X0.1343 Y1.1115
G2 X0.1434 Y1.1514 I0.199 J-0.0245
G1 X0.1599 Y1.2065
G3 X0.1759 Y1.3223 I-0.4184 J0.1171
X0.1775 Y1.4983 I-5.8738 J0.1398
G1 Y1.722
X0.1801 Y1.7288
X0.1893 Y1.7403
X0.2137 Y1.7566
X0.242 Y1.7642
X0.2711 Y1.7682
G2 X0.447 Y1.7722 I0.1381 J-2.1912
G1 X0.535 Y1.7725
X0.8325
X0.8335 Y1.7726
X0.9057 Y1.7809
X0.9124 Y1.7815
G2 X1.0323 Y1.7781 I-0.0034 J-2.2114
G3 X1.2082 Y1.7728 I0.1498 J2.0562
G1 X1.2668 Y1.7725
X1.5602
X3.0268
X3.3305
X3.3312
X3.332 Y1.7726
X3.3327 Y1.7727
X3.3583 Y1.7772
X3.3632 Y1.7778
X3.3832 Y1.7788
X3.4698 Y1.7815
G2 X3.5097 Y1.7791 I0.0053 J-0.2486
G3 X3.7149 Y1.7728 I0.1671 J2.0873
G1 X3.8029 Y1.7725
X4.6462
X4.6497 Y1.7714
X4.6561 Y1.7679
X4.6669 Y1.7579
X4.6823 Y1.7329
X4.6896 Y1.7045
G2 X4.6968 Y1.5875 I-0.8189 J-0.109
X4.6975 Y1.2942 I-22.6279 J-0.1996
G1 Y0.9422
Y0.2272
X4.6946 Y0.2205
X4.6852 Y0.2092
X4.6606 Y0.1932
X4.6323 Y0.1856
G2 X4.5153 Y0.1782 I-0.1091 J0.7929
X4.2513 Y0.1775 I-0.1847 J19.54
G1 X3.7585
X3.7568 Y0.1774
X3.7551 Y0.177
X3.7535 Y0.1765
G2 X3.7095 Y0.1597 I-0.1423 J0.3067
G1 X3.6229 Y0.1366
X3.6029 Y0.1318
G2 X3.4897 Y0.1188 I-0.9331 J7.5916
G1 X3.4764 Y0.1186
X3.4698 Y0.1185
X3.3832 Y0.1212
X3.3632 Y0.1222
G2 X3.25 Y0.1422 I0.5232 J3.3055
G1 X3.2353 Y0.1462
X3.23 Y0.1479
X3.1967 Y0.159
X3.1684 Y0.1669
X3.1396 Y0.1719
G3 X2.9931 Y0.1771 I-0.1209 J-1.3485
G1 X2.9637 Y0.1774
X2.9051 Y0.1775
X2.2597
X1.2607
X1.2594 Y0.1774
X1.2581 Y0.1772
X1.2568 Y0.1769
X1.1655 Y0.1464
X1.1588 Y0.1443
X1.1522 Y0.1427
X1.1358 Y0.1395
X1.0523 Y0.1246
X1.0456 Y0.1236
X1.0256 Y0.1214
X0.939 Y0.1188
G2 X0.8924 Y0.1207 I-0.0145 J0.2122
G1 X0.8125 Y0.1298
X0.8058 Y0.1307
X0.7859 Y0.1343
G2 X0.686 Y0.1611 I0.8807 J3.4852
G3 X0.5699 Y0.176 I-0.1152 J-0.4364
X0.3096 Y0.1774 I-0.178 J-9.3627
G1 X0.306 Y0.1783
X0.2995 Y0.1817
X0.2885 Y0.1914
X0.2729 Y0.2162
X0.2654 Y0.2446
G2 X0.2582 Y0.3616 I0.8103 J0.109
G3 X0.2573 Y0.4901 I-10.1289 J-0.0033
G1 X0.2566 Y0.4924
X0.2555 Y0.4946
X0.2263 Y0.539
X0.216 Y0.5589
X0.1763 Y0.6439
G2 X0.1661 Y0.6731 I0.1526 J0.0701
G1 X0.1423 Y0.752
X0.1404 Y0.7586
X0.1373 Y0.772
X0.1357 Y0.7786
X0.123 Y0.8652
X0.1199 Y0.8875
G2 X0.1201 Y1.0116 I2.1844 J0.0589
G1 X0.1206 Y1.0183
X0.1333 Y1.1048
G2 X0.1511 Y1.1768 I0.3553 J-0.0497
G1 X0.1599 Y1.2065
G2 X0.177 Y1.258 I0.3424 J-0.0856
G1 X0.2176 Y1.3445
X0.2198 Y1.3485
X0.2264 Y1.3604
X0.2373 Y1.3822
X0.2458 Y1.4073
X0.2513 Y1.4361
G3 X0.257 Y1.5532 I-1.0268 J0.1085
G1 X0.2573 Y1.5826
X0.2574 Y1.6119
Y1.6412
X0.2598 Y1.6482
X0.2688 Y1.6598
X0.2931 Y1.6763
X0.3213 Y1.6841
X0.3504 Y1.688
G2 X0.5263 Y1.6922 I0.1383 J-2.1449
G1 X0.5718 Y1.6925
X0.5735 Y1.6926
X0.5752 Y1.6929
X0.5768 Y1.6935
G2 X0.6793 Y1.7373 I1.8281 J-4.1383
G1 X0.6993 Y1.7427
X0.7792 Y1.764
G2 X0.8335 Y1.7725 I0.0807 J-0.336
G1 X0.836 Y1.7731
X0.8384 Y1.7742
X0.8404 Y1.7757
X0.8422 Y1.7776
X0.844 Y1.7796
X0.8462 Y1.7812
X0.8487 Y1.7822
X0.8501 Y1.7825 Z-0.2849
X0.8514 Y1.7827 Z-0.2847
X0.8541 Y1.7829 Z-0.2838
X0.8564 Y1.783 Z-0.2823
X0.8584 Y1.7832 Z-0.2803
X0.8599 Y1.7833 Z-0.2779
X0.8608 Z-0.2753
X0.8611 Y1.7834 Z-0.2725
G0 Z-0.0246
X0.1935 Y1.3325
Z-0.26
G1 Z-0.2725 F40
X0.1938 Y1.3327 Z-0.2753
X0.1946 Y1.3332 Z-0.2779
X0.1959 Y1.3339 Z-0.2803
X0.1976 Y1.3349 Z-0.2823
X0.1996 Y1.3361 Z-0.2838
X0.2019 Y1.3374 Z-0.2847
X0.2043 Y1.3388 Z-0.285
G3 X0.2264 Y1.3604 I-0.0311 J0.054
G1 X0.2287 Y1.3644
X0.2331 Y1.3714
X0.2811 Y1.4443
X0.2864 Y1.4523
X0.2906 Y1.4576
X0.2962 Y1.4643
X0.3048 Y1.4755
X0.3134 Y1.4906
X0.322 Y1.5119
X0.3292 Y1.5404
X0.3311 Y1.5549
X0.3319 Y1.5622
X0.3351 Y1.5688
X0.3445 Y1.5801
X0.3689 Y1.5963
X0.3972 Y1.604
X0.4263 Y1.608
X0.4396 Y1.6089
X0.4422 Y1.6094
X0.4446 Y1.6104
X0.4467 Y1.6118
G3 X0.4485 Y1.6285 I-0.0084 J0.0093
G1 X0.4468 Y1.6299 Z-0.2848
X0.4452 Y1.6312 Z-0.2842
X0.4437 Y1.6324 Z-0.2833
X0.442 Y1.6328 Z-0.2821
X0.4405 Y1.6332 Z-0.2806
X0.4393 Y1.6334 Z-0.2788
X0.4384 Y1.6336 Z-0.2769
X0.4378 Z-0.2747
X0.4376 Z-0.2725
G0 Z-0.0246
X0.2586 Y1.4432
Z-0.26
G1 Z-0.2725 F40
X0.2589 Y1.4433 Z-0.2753
X0.2598 Y1.4436 Z-0.2779
X0.2612 Y1.4441 Z-0.2803
X0.263 Y1.4448 Z-0.2823
X0.2653 Y1.4455 Z-0.2838
X0.2678 Y1.4464 Z-0.2847
X0.2704 Y1.4473 Z-0.285
G3 X0.2962 Y1.4643 I-0.0203 J0.0589
G2 X0.3672 Y1.5442 I2.3273 J-1.996
G1 X0.373 Y1.5496
G2 X0.4661 Y1.6274 I1.5512 J-1.7633
G1 X0.4715 Y1.6307
X0.5461 Y1.6766
X0.5661 Y1.6887
X0.5728 Y1.6917
X0.5768 Y1.6935
G3 X0.5831 Y1.7091 I-0.0055 J0.0112
G1 X0.5818 Y1.7109 Z-0.2848
X0.5807 Y1.7126 Z-0.2842
X0.5795 Y1.7142 Z-0.2833
X0.5778 Y1.7151 Z-0.2819
X0.5764 Y1.7158 Z-0.2802
X0.5752 Y1.7164 Z-0.2782
X0.5744 Y1.7168 Z-0.276
X0.574 Y1.717 Z-0.2736
Z-0.2725
G0 Z-0.0246
X1.004 Y1.7895
Z-0.2725
G1 Z-0.285 F40
G3 X1.0323 Y1.7779 I0.0372 J0.05
G1 X1.0456 Y1.7764
G2 X1.1527 Y1.7572 I-0.4306 J-2.7087
X1.2736 Y1.7173 I-0.7043 J-2.3323
G1 X1.2854 Y1.7129
X1.3133 Y1.7041
X1.3421 Y1.6986
G3 X1.4593 Y1.693 I0.1083 J1.0382
G1 X1.4886 Y1.6927
X1.5179 Y1.6926
X1.5766 Y1.6925
X2.0459
X3.0574
X3.0589 Y1.6926
X3.0603 Y1.6928
X3.0618 Y1.6933
G2 X3.2499 Y1.758 I0.9923 J-2.579
G1 X3.2566 Y1.7591
X3.3327 Y1.7727
G3 X3.341 Y1.7783 I-0.0022 J0.0123
G1 X3.3427 Y1.7804
X3.3448 Y1.782
X3.3472 Y1.7832
X3.3489 Y1.7836 Z-0.2849
X3.3506 Y1.784 Z-0.2845
X3.353 Y1.7842 Z-0.2835
X3.3553 Y1.7843 Z-0.282
X3.3571 Y1.7845 Z-0.28
X3.3585 Y1.7846 Z-0.2777
X3.3593 Y1.7847 Z-0.2752
X3.3596 Z-0.2725
G0 Z-0.0246
X1.2527 Y1.7411
Z-0.26
G1 Z-0.2725 F40
X1.2529 Y1.7409 Z-0.2753
X1.2535 Y1.7402 Z-0.2779
X1.2544 Y1.739 Z-0.2803
X1.2557 Y1.7375 Z-0.2823
X1.2572 Y1.7356 Z-0.2838
X1.2588 Y1.7336 Z-0.2847
X1.2606 Y1.7314 Z-0.285
G3 X1.2854 Y1.7129 I0.0485 J0.0391
G1 X1.4452 Y1.6536
X1.4585 Y1.6495
X1.4652 Y1.6476
X1.5318 Y1.6287
G3 X1.6479 Y1.6139 I0.1156 J0.4453
X1.8532 Y1.6125 I0.1548 J7.454
G1 X2.8094
X2.8105 Y1.6126
X2.8117 Y1.6127
X2.8128 Y1.613
X2.937 Y1.6482
X2.9436 Y1.6502
X2.9636 Y1.6569
X3.0618 Y1.6933
G3 X3.069 Y1.7085 I-0.0048 J0.0116
G1 X3.0679 Y1.7103 Z-0.2848
X3.0668 Y1.7121 Z-0.2842
X3.0658 Y1.7137 Z-0.2833
X3.0641 Y1.7147 Z-0.2819
X3.0627 Y1.7155 Z-0.2802
X3.0616 Y1.7162 Z-0.2782
X3.0609 Y1.7166 Z-0.276
X3.0605 Y1.7168 Z-0.2736
X3.0604 Y1.7169 Z-0.2725
G0 Z-0.0246
X1.497 Y1.6543
Z-0.26
G1 Z-0.2725 F40
X1.4972 Y1.654 Z-0.2753
X1.4979 Y1.6534 Z-0.2779
X1.4989 Y1.6523 Z-0.2803
X1.5002 Y1.6508 Z-0.2823
X1.5019 Y1.6491 Z-0.2838
X1.5037 Y1.6472 Z-0.2847
X1.5056 Y1.6452 Z-0.285
G3 X1.5318 Y1.6287 I0.0452 J0.0428
G1 X1.6185 Y1.6041
X1.625 Y1.6023
X1.6459 Y1.5974
X1.7982 Y1.567
X1.8048 Y1.5657
X1.8248 Y1.5621
X1.9979 Y1.5414
X2.0046 Y1.5407
G3 X2.1844 Y1.5332 I0.3544 J6.3387
G1 X2.2044 Y1.5327
X2.3776 Y1.5396
X2.3842 Y1.5399
X2.4042 Y1.5417
G3 X2.584 Y1.5634 I-0.9876 J8.9633
G1 X2.7572 Y1.598
X2.7638 Y1.5995
X2.7838 Y1.6048
X2.8128 Y1.613
G3 X2.8212 Y1.6275 I-0.0038 J0.0119
G1 X2.8202 Y1.6294 Z-0.2848
X2.8193 Y1.6313 Z-0.2842
X2.8184 Y1.633 Z-0.2833
X2.8168 Y1.6342 Z-0.2819
X2.8155 Y1.6351 Z-0.2802
X2.8144 Y1.6358 Z-0.2782
X2.8137 Y1.6363 Z-0.276
X2.8134 Y1.6366 Z-0.2736
X2.8133 Z-0.2725
G0 Z-0.0246
X3.4815 Y1.791
Z-0.2725
G1 Z-0.285 F40
G3 X3.5097 Y1.7791 I0.0375 J0.0498
G1 X3.5896 Y1.7699
X3.5963 Y1.7691
X3.6029 Y1.7682
G2 X3.7206 Y1.7372 I-0.5774 J-2.4341
G1 X3.7295 Y1.7337
X3.7371 Y1.7306
X3.768 Y1.7173
X3.7955 Y1.7071
X3.8241 Y1.7002
G3 X3.9411 Y1.6932 I0.1058 J0.7862
G1 X3.9704 Y1.6928
X3.9997 Y1.6926
X4.0584 Y1.6925
X4.3224
X4.5644
X4.568 Y1.6918
X4.5746 Y1.6886
X4.5857 Y1.6791
X4.6017 Y1.6545
X4.6093 Y1.6261
G2 X4.6168 Y1.5091 I-0.7905 J-0.1093
X4.6175 Y1.3331 I-11.8133 J-0.136
G1 Y0.5412
Y0.3102
X4.6168 Y0.3066
X4.6135 Y0.3
X4.6038 Y0.289
X4.5791 Y0.2732
X4.5508 Y0.2656
G2 X4.4338 Y0.2582 I-0.1093 J0.7972
X4.2578 Y0.2575 I-0.136 J11.9445
G1 X3.9129
X3.9106 Y0.2573
X3.9084 Y0.2567
X3.9063 Y0.2556
X3.8427 Y0.2165
G2 X3.8094 Y0.2005 I-0.115 J0.1974
G1 X3.7535 Y0.1765
G3 X3.7471 Y0.161 I0.0053 J-0.0113
G1 X3.7483 Y0.1592 Z-0.2848
X3.7495 Y0.1575 Z-0.2842
X3.7505 Y0.1559 Z-0.2833
X3.7523 Y0.155 Z-0.2819
X3.7537 Y0.1542 Z-0.2802
X3.7548 Y0.1536 Z-0.2782
X3.7556 Y0.1532 Z-0.276
X3.756 Y0.153 Z-0.2736
X3.7561 Z-0.2725
G0 Z-0.0246
X3.7369 Y1.7471
Z-0.26
G1 Z-0.2725 F40
X3.7371 Y1.7469 Z-0.2753
X3.7376 Y1.7461 Z-0.2779
X3.7385 Y1.7449 Z-0.2803
X3.7397 Y1.7433 Z-0.2823
X3.741 Y1.7414 Z-0.2838
X3.7426 Y1.7392 Z-0.2847
X3.7442 Y1.737 Z-0.285
G3 X3.768 Y1.7173 I0.0504 J0.0366
G1 X3.8227 Y1.6938
X3.8419 Y1.684
X3.9026 Y1.6466
X3.9232 Y1.6354
X3.9454 Y1.6268
X3.974 Y1.6201
G3 X4.091 Y1.6132 I0.1062 J0.8026
G1 X4.1203 Y1.6128
X4.1496 Y1.6126
X4.2083 Y1.6125
X4.443
X4.4833
X4.487
X4.4937 Y1.6096
X4.5051 Y1.6003
X4.5214 Y1.5759
X4.5291 Y1.5476
X4.5331 Y1.5186
G2 X4.5372 Y1.3427 I-2.1569 J-0.1385
G1 X4.5375 Y1.2547
Y0.3893
X4.5364 Y0.3858
X4.5329 Y0.3794
X4.523 Y0.3686
X4.4981 Y0.353
X4.4697 Y0.3456
X4.4407 Y0.3418
X4.4114 Y0.3398
G2 X4.1767 Y0.3376 I-0.1731 J6.0669
G1 X4.0167 Y0.3375
X4.0138 Y0.3372
X4.0111 Y0.3362
X4.0087 Y0.3346
X3.9426 Y0.2793
X3.9359 Y0.2743
X3.9293 Y0.2698
X3.9063 Y0.2556
G3 X3.9022 Y0.2394 I0.0069 J-0.0104
G1 X3.9037 Y0.2378 Z-0.2848
X3.9051 Y0.2362 Z-0.2842
X3.9064 Y0.2348 Z-0.2833
X3.9082 Y0.2342 Z-0.2819
X3.9097 Y0.2336 Z-0.2802
X3.911 Y0.2332 Z-0.2782
X3.9118 Y0.2329 Z-0.276
X3.9122 Y0.2328 Z-0.2736
Z-0.2725
G0 Z-0.0246
X3.8761 Y1.6807
Z-0.26
G1 Z-0.2725 F40
X3.8763 Y1.6804 Z-0.2753
X3.8767 Y1.6796 Z-0.2779
X3.8774 Y1.6783 Z-0.2803
X3.8783 Y1.6765 Z-0.2823
X3.8794 Y1.6744 Z-0.2838
X3.8806 Y1.6721 Z-0.2847
X3.8819 Y1.6696 Z-0.285
G3 X3.9026 Y1.6466 I0.0552 J0.0289
G2 X3.9559 Y1.6096 I-0.1443 J-0.264
G1 X3.9959 Y1.5761
X4.0105 Y1.565
X4.0259 Y1.5564
X4.0478 Y1.5477
X4.0763 Y1.5407
G3 X4.1932 Y1.5333 I0.1072 J0.7614
X4.4059 Y1.5325 I0.1524 J13.2536
G1 X4.4129 Y1.5302
X4.4245 Y1.5213
X4.4411 Y1.4971
X4.449 Y1.4688
X4.453 Y1.4398
G2 X4.4572 Y1.2932 I-1.7414 J-0.1229
G1 X4.4574 Y1.2639
X4.4575 Y1.1759
Y0.4719
X4.4574 Y0.4682
X4.4546 Y0.4615
X4.4454 Y0.45
X4.4211 Y0.4337
X4.3928 Y0.4259
X4.3637 Y0.422
G2 X4.1878 Y0.4178 I-0.1385 J2.1469
G1 X4.0998 Y0.4175
X4.0935
X4.09 Y0.417
X4.0868 Y0.4156
X4.0842 Y0.4133
X4.0419 Y0.3659
G2 X4.0086 Y0.3347 I-0.1646 J0.1422
G1 X4.0068 Y0.3327
X4.0055 Y0.3304
X4.0047 Y0.3279
X4.0045 Y0.3252
X4.0048 Y0.3226
X4.0056 Y0.3201
X4.007 Y0.3179
X4.0086 Y0.3165 Z-0.2848
X4.0102 Y0.3152 Z-0.2842
X4.0117 Y0.314 Z-0.2833
X4.0134 Y0.3136 Z-0.2821
X4.0149 Y0.3133 Z-0.2806
X4.0161 Y0.313 Z-0.2788
X4.017 Y0.3128 Z-0.2769
X4.0176 Z-0.2747
X4.0178 Z-0.2725
G0 Z-0.0246
X3.9746 Y1.6137
Z-0.26
G1 Z-0.2725 F40
X3.9747 Y1.6134 Z-0.2753
X3.975 Y1.6125 Z-0.2779
X3.9755 Y1.6111 Z-0.2803
X3.9761 Y1.6092 Z-0.2823
X3.9769 Y1.607 Z-0.2838
X3.9778 Y1.6045 Z-0.2847
X3.9787 Y1.6019 Z-0.285
G3 X3.9959 Y1.5761 I0.0588 J0.0206
G2 X4.0358 Y1.5409 I-0.3232 J-0.4067
G1 X4.0685 Y1.5042
X4.0776 Y1.495
X4.0887 Y1.4865
X4.1041 Y1.4776
X4.1258 Y1.4687
X4.1543 Y1.4614
G3 X4.2712 Y1.4534 I0.1085 J0.724
G1 X4.3005 Y1.4529
X4.3262 Y1.4528
X4.3331 Y1.4503
X4.3447 Y1.4413
X4.3612 Y1.4171
X4.369 Y1.3888
X4.373 Y1.3597
G2 X4.3772 Y1.1838 I-2.1326 J-0.1385
G1 X4.3775 Y1.0958
Y0.5495
X4.3765 Y0.546
X4.373 Y0.5395
X4.3631 Y0.5287
X4.3383 Y0.5131
X4.3099 Y0.5056
G2 X4.1929 Y0.4982 I-0.1094 J0.8029
G1 X4.1636 Y0.4978
X4.1533
X4.1493 Y0.4971
X4.1457 Y0.4952
X4.1429 Y0.4922
X4.1167 Y0.4524
G2 X4.0842 Y0.4133 I-0.2714 J0.193
G1 X4.0829 Y0.4116
X4.082 Y0.4096
X4.0815 Y0.4075
X4.0813 Y0.4053
X4.0815 Y0.4029
X4.0822 Y0.4006
X4.0834 Y0.3984
X4.0849 Y0.3965
X4.0867 Y0.3954 Z-0.2848
X4.0885 Y0.3944 Z-0.2842
X4.0902 Y0.3934 Z-0.2833
X4.0921 Y0.3931 Z-0.2819
X4.0938 Y0.3928 Z-0.2802
X4.0952 Y0.393 Z-0.2778
X4.0961 Y0.3931 Z-0.2752
X4.0964 Z-0.2725
G0 Z-0.0246
X4.0529 Y1.5445
Z-0.26
G1 Z-0.2725 F40
Y1.5442 Z-0.2753
X4.0531 Y1.5432 Z-0.2779
X4.0534 Y1.5418 Z-0.2803
X4.0538 Y1.5398 Z-0.2823
X4.0542 Y1.5375 Z-0.2838
X4.0547 Y1.5349 Z-0.2847
X4.0553 Y1.5322 Z-0.285
G3 X4.0685 Y1.5042 I0.0612 J0.0119
G1 X4.1041 Y1.4643
X4.1096 Y1.4576
X4.1144 Y1.451
X4.1276 Y1.431
X4.1317 Y1.4255
X4.1399 Y1.4169
X4.1513 Y1.408
X4.1666 Y1.399
X4.1884 Y1.3898
X4.2167 Y1.3822
X4.2457 Y1.3779
X4.2526 Y1.3753
X4.2642 Y1.3664
X4.2809 Y1.3422
X4.2888 Y1.314
X4.2929 Y1.2849
G2 X4.2971 Y1.1384 I-1.7128 J-0.1232
G1 X4.2974 Y1.109
X4.2975 Y1.0504
Y0.669
Y0.6287
X4.2949 Y0.6218
X4.2859 Y0.6103
X4.2616 Y0.5938
X4.2333 Y0.586
X4.2043 Y0.582
X4.2017 Y0.5818
X4.1974 Y0.5807
X4.1938 Y0.5782
X4.1913 Y0.5746
X4.1871 Y0.5656
X4.1839 Y0.5589
X4.1737 Y0.539
X4.1429 Y0.4922
G3 X4.1461 Y0.4757 I0.0107 J-0.0065
G1 X4.1481 Y0.4748 Z-0.2848
X4.15 Y0.474 Z-0.2842
X4.1518 Y0.4733 Z-0.2833
X4.1536 Y0.4732 Z-0.2821
X4.1554 Y0.4735 Z-0.2801
X4.1568 Y0.4737 Z-0.2778
X4.1577 Y0.4739 Z-0.2752
X4.1579 Z-0.2725
G0 Z-0.0246
X4.118 Y1.4731
Z-0.26
G1 Z-0.2725 F40
Y1.4728 Z-0.2753
X4.1181 Y1.4718 Z-0.2779
Y1.4703 Z-0.2803
X4.1182 Y1.4684 Z-0.2823
X4.1183 Y1.466 Z-0.2838
X4.1185 Y1.4634 Z-0.2847
X4.1186 Y1.4606 Z-0.285
G3 X4.1276 Y1.431 I0.0622 J0.0029
G1 X4.169 Y1.3682
X4.1714 Y1.3644
X4.1788 Y1.3511
X4.1824 Y1.3445
X4.2228 Y1.2579
X4.2306 Y1.238
G2 X4.2623 Y1.1312 I-2.3369 J-0.7518
X4.2801 Y1.0116 I-3.0137 J-0.5117
X4.2799 Y0.8851 I-2.2983 J-0.0594
G1 X4.275 Y0.8518
X4.2642 Y0.7786
X4.2595 Y0.7586
X4.2576 Y0.752
X4.2337 Y0.6721
X4.2316 Y0.6654
X4.227 Y0.6521
X4.2244 Y0.6455
X4.1913 Y0.5746
G3 X4.1969 Y0.5588 I0.0115 J-0.0049
G1 X4.1989 Y0.5582 Z-0.2848
X4.2009 Y0.5577 Z-0.2842
X4.2028 Y0.5572 Z-0.2833
X4.2047 Y0.5577 Z-0.2819
X4.2063 Y0.5581 Z-0.2802
X4.2076 Y0.5584 Z-0.2781
X4.2084 Y0.5587 Z-0.2759
X4.2088 Y0.5588 Z-0.2735
Z-0.2725
G0 Z-0.0246
X3.2303 Y0.1319
Z-0.26
G1 Z-0.2725 F40
X3.2301 Y0.1321 Z-0.2753
X3.2295 Y0.1328 Z-0.2779
X3.2285 Y0.1339 Z-0.2803
X3.2272 Y0.1354 Z-0.2823
X3.2256 Y0.1372 Z-0.2838
X3.2239 Y0.1392 Z-0.2847
X3.2221 Y0.1413 Z-0.285
G3 X3.1967 Y0.159 I-0.0472 J-0.0407
G1 X3.1434 Y0.1768
X3.1358 Y0.1795
X3.1168 Y0.1863
X2.9836 Y0.2357
X2.9556 Y0.2445
X2.9269 Y0.2507
G3 X2.8098 Y0.257 I-0.1084 J-0.9265
G1 X2.7805 Y0.2573
X2.7512 Y0.2574
X2.6925 Y0.2575
X2.3699
X1.4848
X1.4837 Y0.2574
X1.4825 Y0.2573
X1.4814 Y0.257
X1.4662 Y0.2527
X1.4452 Y0.2464
X1.272 Y0.1822
X1.2645 Y0.1795
X1.2568 Y0.1769
G3 X1.2491 Y0.1619 I0.0044 J-0.0117
G1 X1.2501 Y0.16 Z-0.2848
X1.2511 Y0.1582 Z-0.2842
X1.2521 Y0.1565 Z-0.2833
X1.2537 Y0.1555 Z-0.2819
X1.2551 Y0.1546 Z-0.2802
X1.2562 Y0.154 Z-0.2782
X1.2569 Y0.1535 Z-0.276
X1.2573 Y0.1533 Z-0.2736
Y0.1532 Z-0.2725
G0 Z-0.0246
X3.0162 Y0.2075
Z-0.26
G1 Z-0.2725 F40
X3.016 Y0.2078 Z-0.2753
X3.0154 Y0.2085 Z-0.2779
X3.0145 Y0.2096 Z-0.2803
X3.0133 Y0.2112 Z-0.2823
X3.0118 Y0.213 Z-0.2838
X3.0101 Y0.2151 Z-0.2847
X3.0084 Y0.2172 Z-0.285
G3 X2.9836 Y0.2357 I-0.0485 J-0.0391
G1 X2.9636 Y0.2431
X2.9436 Y0.2498
X2.937 Y0.2518
X2.7905 Y0.2934
X2.7838 Y0.2952
X2.7638 Y0.3005
X2.7572 Y0.302
X2.6373 Y0.3259
G3 X2.4913 Y0.3368 I-0.133 J-0.7982
G1 X2.4619 Y0.3372
X2.4326 Y0.3374
X2.3739 Y0.3375
X2.0806
X1.8235
X1.8227
X1.822 Y0.3374
X1.8212 Y0.3373
X1.8048 Y0.3343
X1.7959 Y0.3326
X1.645 Y0.3024
X1.6383 Y0.301
X1.625 Y0.2977
X1.6183 Y0.2959
X1.4814 Y0.257
G3 X1.473 Y0.2425 I0.0038 J-0.0119
G1 X1.474 Y0.2406 Z-0.2848
X1.4749 Y0.2387 Z-0.2842
X1.4758 Y0.237 Z-0.2833
X1.4774 Y0.2358 Z-0.2819
X1.4787 Y0.2349 Z-0.2802
X1.4798 Y0.2342 Z-0.2782
X1.4805 Y0.2337 Z-0.276
X1.4808 Y0.2334 Z-0.2736
X1.4809 Z-0.2725
G0 Z-0.0246
X2.674 Y0.3032
Z-0.26
G1 Z-0.2725 F40
X2.6738 Y0.3034 Z-0.2753
X2.6731 Y0.304 Z-0.2779
X2.672 Y0.305 Z-0.2803
X2.6705 Y0.3063 Z-0.2823
X2.6687 Y0.3079 Z-0.2838
X2.6668 Y0.3097 Z-0.2847
X2.6647 Y0.3116 Z-0.285
G3 X2.6373 Y0.3259 I-0.0417 J-0.0463
G1 X2.584 Y0.3366
G3 X2.4042 Y0.3582 I-1.0925 J-8.3105
G1 X2.3842 Y0.3601
X2.3776 Y0.3604
X2.2044 Y0.3673
X2.1844 Y0.3668
X2.1778 Y0.3666
X2.0312 Y0.3608
X2.0246 Y0.3605
X2.0037 Y0.3592
X1.9913 Y0.3578
X1.8248 Y0.3379
X1.8212 Y0.3373
G3 X1.8114 Y0.3251 I0.0027 J-0.0122
G1 Y0.3246
Y0.3241
X1.8115 Y0.3236
X1.8123 Y0.3216 Z-0.2848
X1.813 Y0.3197 Z-0.2842
X1.8137 Y0.3179 Z-0.2833
X1.8152 Y0.3166 Z-0.2819
X1.8164 Y0.3156 Z-0.2802
X1.8174 Y0.3147 Z-0.2782
X1.818 Y0.3142 Z-0.276
X1.8184 Y0.3139 Z-0.2736
Y0.3138 Z-0.2725
G0 Z-0.0246
X0.7206 Y0.1354
Z-0.26
G1 Z-0.2725 F40
X0.7204 Y0.1356 Z-0.2753
X0.7198 Y0.1363 Z-0.2779
X0.7188 Y0.1374 Z-0.2803
X0.7174 Y0.1388 Z-0.2823
X0.7158 Y0.1406 Z-0.2838
X0.714 Y0.1425 Z-0.2847
X0.7121 Y0.1445 Z-0.285
G3 X0.686 Y0.1611 I-0.0454 J-0.0427
G1 X0.6793 Y0.163
X0.6727 Y0.1653
G2 X0.5636 Y0.2126 I1.1627 J2.829
G1 X0.5417 Y0.2261
X0.526 Y0.2347
X0.5038 Y0.2432
X0.4753 Y0.2499
G3 X0.3876 Y0.2565 I-0.1026 J-0.7796
G1 X0.3809 Y0.2597
X0.3696 Y0.2691
X0.3535 Y0.2936
X0.3458 Y0.3219
X0.3419 Y0.351
X0.3398 Y0.3802
Y0.3821
X0.3393 Y0.385
X0.3383 Y0.3877
X0.3366 Y0.39
G3 X0.3198 Y0.3912 I-0.009 J-0.0086
G1 X0.3185 Y0.3895 Z-0.2848
X0.3173 Y0.3879 Z-0.2842
X0.3161 Y0.3863 Z-0.2833
X0.3157 Y0.3843 Z-0.2819
X0.3153 Y0.3826 Z-0.28
X0.3151 Y0.3814 Z-0.2778
Y0.3805 Z-0.2752
Y0.3802 Z-0.2725
G0 Z-0.0246
X0.5682 Y0.192
Z-0.26
G1 Z-0.2725 F40
X0.5681 Y0.1923 Z-0.2753
X0.5677 Y0.1931 Z-0.2779
X0.567 Y0.1944 Z-0.2803
X0.5661 Y0.1962 Z-0.2823
X0.565 Y0.1983 Z-0.2838
X0.5637 Y0.2006 Z-0.2847
X0.5624 Y0.2031 Z-0.285
G3 X0.5417 Y0.2261 I-0.0552 J-0.0289
G1 X0.4795 Y0.2644
G2 X0.4396 Y0.2942 I0.1233 J0.2069
G1 X0.3858 Y0.3392
G2 X0.3581 Y0.3659 I0.1187 J0.1511
G1 X0.3047 Y0.4258
X0.2997 Y0.4316
X0.2864 Y0.4483
X0.2833 Y0.4524
X0.2555 Y0.4946
G3 X0.2391 Y0.4982 I-0.0102 J-0.0072
G1 X0.2375 Y0.4967 Z-0.2848
X0.236 Y0.4953 Z-0.2842
X0.2346 Y0.4939 Z-0.2833
X0.2341 Y0.4921 Z-0.2819
X0.2336 Y0.4905 Z-0.2802
X0.2332 Y0.4893 Z-0.2782
X0.2329 Y0.4885 Z-0.276
X0.2328 Y0.488 Z-0.2736
Z-0.2725
G0 Z-0.0246
X-0.0098 Y-0.1331
Z-0.2738
G1 Z-0.365 F40
G3 X0 Y-0.0651 I-0.3091 J0.0792
G1 Y-0.0614
X0.0082 Y-0.0332
G3 X0.0167 Y0.0836 I-0.6498 J0.1058
X0.0175 Y0.2596 I-9.4631 J0.1315
G1 Y1.8913
X0.0189 Y1.8947
X0.0291 Y1.9052
X0.0547 Y1.9197
X0.0833 Y1.9262
G2 X0.2004 Y1.932 I0.1068 J-0.9604
G1 X0.2297 Y1.9323
X0.259 Y1.9324
X0.3177 Y1.9325
X0.8164
X2.019
X4.0137
X4.8167
X4.8201 Y1.9311
X4.8305 Y1.9207
X4.8448 Y1.8951
X4.8512 Y1.8665
G2 X4.857 Y1.7494 I-0.968 J-0.1068
G1 X4.8573 Y1.7201
X4.8574 Y1.6907
X4.8575 Y1.6321
Y1.1334
Y0.7521
Y0.0591
X4.8561 Y0.0557
X4.846 Y0.045
X4.8206 Y0.0304
X4.792 Y0.0239
G2 X4.6749 Y0.018 I-0.1068 J0.9529
G1 X4.6455 Y0.0177
X4.6162 Y0.0176
X4.5575 Y0.0175
X4.0882
X3.5895
X1.5949
X0.1356
X0.1322 Y0.0189
X0.122 Y0.0295
X0.1087 Y0.0556
X0.1029 Y0.0844
G2 X0.0979 Y0.2016 I1.0328 J0.1023
G1 X0.0977 Y0.2309
X0.0975 Y0.2896
Y0.5242
Y1.8039
X0.1004 Y1.8106
X0.11 Y1.8217
X0.1347 Y1.8374
X0.1631 Y1.8448
G2 X0.2802 Y1.8518 I0.1085 J-0.8233
G1 X0.3095 Y1.8522
X0.3388 Y1.8523
X0.3975 Y1.8525
X0.6028
X0.7788
X2.7735
X4.7278
X4.7347 Y1.8501
X4.7461 Y1.8408
X4.7622 Y1.8163
X4.7696 Y1.7879
G2 X4.7768 Y1.6709 I-0.8092 J-0.1085
G1 X4.7772 Y1.6416
X4.7773 Y1.6123
X4.7775 Y1.5536
Y1.3483
Y0.1456
X4.7746 Y0.1388
X4.7648 Y0.1279
X4.7399 Y0.1124
X4.7115 Y0.1051
G2 X4.5945 Y0.0981 I-0.1085 J0.8315
G1 X4.5652 Y0.0978
X4.5358 Y0.0977
X4.5065 Y0.0976
X4.4185 Y0.0975
X2.5118
X0.5172
X0.2275
X0.2239 Y0.0981
X0.2175 Y0.1017
X0.2069 Y0.1118
X0.1918 Y0.137
X0.1848 Y0.1655
G2 X0.1781 Y0.2825 I0.8645 J0.1081
G1 X0.1778 Y0.3118
X0.1776 Y0.3412
X0.1775 Y0.3998
Y0.6386
X0.1774 Y0.6405
X0.177 Y0.6422
X0.1763 Y0.6439
G2 X0.1663 Y0.6721 I0.1569 J0.0714
G1 X0.1423 Y0.752
X0.1404 Y0.7586
X0.1373 Y0.772
X0.1357 Y0.7786
X0.123 Y0.8652
X0.1199 Y0.8875
G2 X0.1196 Y0.9983 I3.0386 J0.0642
G1 X0.1206 Y1.0183
X0.1343 Y1.1115
G2 X0.1434 Y1.1514 I0.199 J-0.0245
G1 X0.1599 Y1.2065
G3 X0.1759 Y1.3223 I-0.4184 J0.1171
X0.1775 Y1.4983 I-5.8738 J0.1398
G1 Y1.722
X0.1801 Y1.7288
X0.1893 Y1.7403
X0.2137 Y1.7566
X0.242 Y1.7642
X0.2711 Y1.7682
G2 X0.447 Y1.7722 I0.1381 J-2.1912
G1 X0.535 Y1.7725
X0.8325
X0.8335 Y1.7726
X0.9057 Y1.7809
X0.9124 Y1.7815
G2 X1.0323 Y1.7781 I-0.0034 J-2.2114
G3 X1.2082 Y1.7728 I0.1498 J2.0562
G1 X1.2668 Y1.7725
X1.5602
X3.0268
X3.3305
X3.3312
X3.332 Y1.7726
X3.3327 Y1.7727
X3.3583 Y1.7772
X3.3632 Y1.7778
X3.3832 Y1.7788
X3.4698 Y1.7815
G2 X3.5097 Y1.7791 I0.0053 J-0.2486
G3 X3.7149 Y1.7728 I0.1671 J2.0873
G1 X3.8029 Y1.7725
X4.6462
X4.6497 Y1.7714
X4.6561 Y1.7679
X4.6669 Y1.7579
X4.6823 Y1.7329
X4.6896 Y1.7045
G2 X4.6968 Y1.5875 I-0.8189 J-0.109
X4.6975 Y1.2942 I-22.6279 J-0.1996
G1 Y0.9422
Y0.2272
X4.6946 Y0.2205
X4.6852 Y0.2092
X4.6606 Y0.1932
X4.6323 Y0.1856
G2 X4.5153 Y0.1782 I-0.1091 J0.7929
X4.2513 Y0.1775 I-0.1847 J19.54
G1 X3.7585
X3.7568 Y0.1774
X3.7551 Y0.177
X3.7535 Y0.1765
G2 X3.7095 Y0.1597 I-0.1423 J0.3067
G1 X3.6229 Y0.1366
X3.6029 Y0.1318
G2 X3.4897 Y0.1188 I-0.9331 J7.5916
G1 X3.4764 Y0.1186
X3.4698 Y0.1185
X3.3832 Y0.1212
X3.3632 Y0.1222
G2 X3.25 Y0.1422 I0.5232 J3.3055
G1 X3.2353 Y0.1462
X3.23 Y0.1479
X3.1967 Y0.159
X3.1684 Y0.1669
X3.1396 Y0.1719
G3 X2.9931 Y0.1771 I-0.1209 J-1.3485
G1 X2.9637 Y0.1774
X2.9051 Y0.1775
X2.2597
X1.2607
X1.2594 Y0.1774
X1.2581 Y0.1772
X1.2568 Y0.1769
X1.1655 Y0.1464
X1.1588 Y0.1443
X1.1522 Y0.1427
X1.1358 Y0.1395
X1.0523 Y0.1246
X1.0456 Y0.1236
X1.0256 Y0.1214
X0.939 Y0.1188
G2 X0.8924 Y0.1207 I-0.0145 J0.2122
G1 X0.8125 Y0.1298
X0.8058 Y0.1307
X0.7859 Y0.1343
G2 X0.686 Y0.1611 I0.8807 J3.4852
G3 X0.5699 Y0.176 I-0.1152 J-0.4364
X0.3096 Y0.1774 I-0.178 J-9.3627
G1 X0.306 Y0.1783
X0.2995 Y0.1817
X0.2885 Y0.1914
X0.2729 Y0.2162
X0.2654 Y0.2446
G2 X0.2582 Y0.3616 I0.8103 J0.109
G3 X0.2573 Y0.4901 I-10.1289 J-0.0033
G1 X0.2566 Y0.4924
X0.2555 Y0.4946
X0.2263 Y0.539
X0.216 Y0.5589
X0.1763 Y0.6439
G2 X0.1661 Y0.6731 I0.1526 J0.0701
G1 X0.1423 Y0.752
X0.1404 Y0.7586
X0.1373 Y0.772
X0.1357 Y0.7786
X0.123 Y0.8652
X0.1199 Y0.8875
G2 X0.1201 Y1.0116 I2.1844 J0.0589
G1 X0.1206 Y1.0183
X0.1333 Y1.1048
G2 X0.1511 Y1.1768 I0.3553 J-0.0497
G1 X0.1599 Y1.2065
G2 X0.177 Y1.258 I0.3424 J-0.0856
G1 X0.2176 Y1.3445
X0.2198 Y1.3485
X0.2264 Y1.3604
X0.2373 Y1.3822
X0.2458 Y1.4073
X0.2513 Y1.4361
G3 X0.257 Y1.5532 I-1.0268 J0.1085
G1 X0.2573 Y1.5826
X0.2574 Y1.6119
Y1.6412
X0.2598 Y1.6482
X0.2688 Y1.6598
X0.2931 Y1.6763
X0.3213 Y1.6841
X0.3504 Y1.688
G2 X0.5263 Y1.6922 I0.1383 J-2.1449
G1 X0.5718 Y1.6925
X0.5735 Y1.6926
X0.5752 Y1.6929
X0.5768 Y1.6935
G2 X0.6793 Y1.7373 I1.8281 J-4.1383
G1 X0.6993 Y1.7427
X0.7792 Y1.764
G2 X0.8335 Y1.7725 I0.0807 J-0.336
G1 X0.836 Y1.7731
X0.8384 Y1.7742
X0.8404 Y1.7757
X0.8422 Y1.7776
X0.844 Y1.7796
X0.8462 Y1.7812
X0.8487 Y1.7822
X0.8501 Y1.7825 Z-0.3649
X0.8514 Y1.7827 Z-0.3647
X0.8541 Y1.7829 Z-0.3638
X0.8564 Y1.783 Z-0.3623
X0.8584 Y1.7832 Z-0.3603
X0.8599 Y1.7833 Z-0.3579
X0.8608 Z-0.3553
X0.8611 Y1.7834 Z-0.3525
G0 Z-0.0246
X0.1935 Y1.3325
Z-0.34
G1 Z-0.3525 F40
X0.1938 Y1.3327 Z-0.3553
X0.1946 Y1.3332 Z-0.3579
X0.1959 Y1.3339 Z-0.3603
X0.1976 Y1.3349 Z-0.3623
X0.1996 Y1.3361 Z-0.3638
X0.2019 Y1.3374 Z-0.3647
X0.2043 Y1.3388 Z-0.365
G3 X0.2264 Y1.3604 I-0.0311 J0.054
G1 X0.2287 Y1.3644
X0.2331 Y1.3714
X0.2811 Y1.4443
X0.2864 Y1.4523
X0.2906 Y1.4576
X0.2962 Y1.4643
X0.3048 Y1.4755
X0.3134 Y1.4906
X0.322 Y1.5119
X0.3292 Y1.5404
X0.3311 Y1.5549
X0.3319 Y1.5622
X0.3351 Y1.5688
X0.3445 Y1.5801
X0.3689 Y1.5963
X0.3972 Y1.604
X0.4263 Y1.608
X0.4396 Y1.6089
X0.4422 Y1.6094
X0.4446 Y1.6104
X0.4467 Y1.6118
G3 X0.4485 Y1.6285 I-0.0084 J0.0093
G1 X0.4468 Y1.6299 Z-0.3648
X0.4452 Y1.6312 Z-0.3642
X0.4437 Y1.6324 Z-0.3633
X0.442 Y1.6328 Z-0.3621
X0.4405 Y1.6332 Z-0.3606
X0.4393 Y1.6334 Z-0.3588
X0.4384 Y1.6336 Z-0.3569
X0.4378 Z-0.3547
X0.4376 Z-0.3525
G0 Z-0.0246
X0.2586 Y1.4432
Z-0.34
G1 Z-0.3525 F40
X0.2589 Y1.4433 Z-0.3553
X0.2598 Y1.4436 Z-0.3579
X0.2612 Y1.4441 Z-0.3603
X0.263 Y1.4448 Z-0.3623
X0.2653 Y1.4455 Z-0.3638
X0.2678 Y1.4464 Z-0.3647
X0.2704 Y1.4473 Z-0.365
G3 X0.2962 Y1.4643 I-0.0203 J0.0589
G2 X0.3672 Y1.5442 I2.3273 J-1.996
G1 X0.373 Y1.5496
G2 X0.4661 Y1.6274 I1.5512 J-1.7633
G1 X0.4715 Y1.6307
X0.5461 Y1.6766
X0.5661 Y1.6887
X0.5728 Y1.6917
X0.5768 Y1.6935
G3 X0.5831 Y1.7091 I-0.0055 J0.0112
G1 X0.5818 Y1.7109 Z-0.3648
X0.5807 Y1.7126 Z-0.3642
X0.5795 Y1.7142 Z-0.3633
X0.5778 Y1.7151 Z-0.3619
X0.5764 Y1.7158 Z-0.3602
X0.5752 Y1.7164 Z-0.3582
X0.5744 Y1.7168 Z-0.356
X0.574 Y1.717 Z-0.3536
Z-0.3525
G0 Z-0.0246
X1.004 Y1.7895
Z-0.3525
G1 Z-0.365 F40
G3 X1.0323 Y1.7779 I0.0372 J0.05
G1 X1.0456 Y1.7764
G2 X1.1527 Y1.7572 I-0.4306 J-2.7087
X1.2736 Y1.7173 I-0.7043 J-2.3323
G1 X1.2854 Y1.7129
X1.3133 Y1.7041
X1.3421 Y1.6986
G3 X1.4593 Y1.693 I0.1083 J1.0382
G1 X1.4886 Y1.6927
X1.5179 Y1.6926
X1.5766 Y1.6925
X2.0459
X3.0574
X3.0589 Y1.6926
X3.0603 Y1.6928
X3.0618 Y1.6933
G2 X3.2499 Y1.758 I0.9923 J-2.579
G1 X3.2566 Y1.7591
X3.3327 Y1.7727
G3 X3.341 Y1.7783 I-0.0022 J0.0123
G1 X3.3427 Y1.7804
X3.3448 Y1.782
X3.3472 Y1.7832
X3.3489 Y1.7836 Z-0.3649
X3.3506 Y1.784 Z-0.3645
X3.353 Y1.7842 Z-0.3635
X3.3553 Y1.7843 Z-0.362
X3.3571 Y1.7845 Z-0.36
X3.3585 Y1.7846 Z-0.3577
X3.3593 Y1.7847 Z-0.3552
X3.3596 Z-0.3525
G0 Z-0.0246
X1.2527 Y1.7411
Z-0.34
G1 Z-0.3525 F40
X1.2529 Y1.7409 Z-0.3553
X1.2535 Y1.7402 Z-0.3579
X1.2544 Y1.739 Z-0.3603
X1.2557 Y1.7375 Z-0.3623
X1.2572 Y1.7356 Z-0.3638
X1.2588 Y1.7336 Z-0.3647
X1.2606 Y1.7314 Z-0.365
G3 X1.2854 Y1.7129 I0.0485 J0.0391
G1 X1.4452 Y1.6536
X1.4585 Y1.6495
X1.4652 Y1.6476
X1.5318 Y1.6287
G3 X1.6479 Y1.6139 I0.1156 J0.4453
X1.8532 Y1.6125 I0.1548 J7.454
G1 X2.8094
X2.8105 Y1.6126
X2.8117 Y1.6127
X2.8128 Y1.613
X2.937 Y1.6482
X2.9436 Y1.6502
X2.9636 Y1.6569
X3.0618 Y1.6933
G3 X3.069 Y1.7085 I-0.0048 J0.0116
G1 X3.0679 Y1.7103 Z-0.3648
X3.0668 Y1.7121 Z-0.3642
X3.0658 Y1.7137 Z-0.3633
X3.0641 Y1.7147 Z-0.3619
X3.0627 Y1.7155 Z-0.3602
X3.0616 Y1.7162 Z-0.3582
X3.0609 Y1.7166 Z-0.356
X3.0605 Y1.7168 Z-0.3536
X3.0604 Y1.7169 Z-0.3525
G0 Z-0.0246
X1.497 Y1.6543
Z-0.34
G1 Z-0.3525 F40
X1.4972 Y1.654 Z-0.3553
X1.4979 Y1.6534 Z-0.3579
X1.4989 Y1.6523 Z-0.3603
X1.5002 Y1.6508 Z-0.3623
X1.5019 Y1.6491 Z-0.3638
X1.5037 Y1.6472 Z-0.3647
X1.5056 Y1.6452 Z-0.365
G3 X1.5318 Y1.6287 I0.0452 J0.0428
G1 X1.6185 Y1.6041
X1.625 Y1.6023
X1.6459 Y1.5974
X1.7982 Y1.567
X1.8048 Y1.5657
X1.8248 Y1.5621
X1.9979 Y1.5414
X2.0046 Y1.5407
G3 X2.1844 Y1.5332 I0.3544 J6.3387
G1 X2.2044 Y1.5327
X2.3776 Y1.5396
X2.3842 Y1.5399
X2.4042 Y1.5417
G3 X2.584 Y1.5634 I-0.9876 J8.9633
G1 X2.7572 Y1.598
X2.7638 Y1.5995
X2.7838 Y1.6048
X2.8128 Y1.613
G3 X2.8212 Y1.6275 I-0.0038 J0.0119
G1 X2.8202 Y1.6294 Z-0.3648
X2.8193 Y1.6313 Z-0.3642
X2.8184 Y1.633 Z-0.3633
X2.8168 Y1.6342 Z-0.3619
X2.8155 Y1.6351 Z-0.3602
X2.8144 Y1.6358 Z-0.3582
X2.8137 Y1.6363 Z-0.356
X2.8134 Y1.6366 Z-0.3536
X2.8133 Z-0.3525
G0 Z-0.0246
X3.4815 Y1.791
Z-0.3525
G1 Z-0.365 F40
G3 X3.5097 Y1.7791 I0.0375 J0.0498
G1 X3.5896 Y1.7699
X3.5963 Y1.7691
X3.6029 Y1.7682
G2 X3.7206 Y1.7372 I-0.5774 J-2.4341
G1 X3.7295 Y1.7337
X3.7371 Y1.7306
X3.768 Y1.7173
X3.7955 Y1.7071
X3.8241 Y1.7002
G3 X3.9411 Y1.6932 I0.1058 J0.7862
G1 X3.9704 Y1.6928
X3.9997 Y1.6926
X4.0584 Y1.6925
X4.3224
X4.5644
X4.568 Y1.6918
X4.5746 Y1.6886
X4.5857 Y1.6791
X4.6017 Y1.6545
X4.6093 Y1.6261
G2 X4.6168 Y1.5091 I-0.7905 J-0.1093
X4.6175 Y1.3331 I-11.8133 J-0.136
G1 Y0.5412
Y0.3102
X4.6168 Y0.3066
X4.6135 Y0.3
X4.6038 Y0.289
X4.5791 Y0.2732
X4.5508 Y0.2656
G2 X4.4338 Y0.2582 I-0.1093 J0.7972
X4.2578 Y0.2575 I-0.136 J11.9445
G1 X3.9129
X3.9106 Y0.2573
X3.9084 Y0.2567
X3.9063 Y0.2556
X3.8427 Y0.2165
G2 X3.8094 Y0.2005 I-0.115 J0.1974
G1 X3.7535 Y0.1765
G3 X3.7471 Y0.161 I0.0053 J-0.0113
G1 X3.7483 Y0.1592 Z-0.3648
X3.7495 Y0.1575 Z-0.3642
X3.7505 Y0.1559 Z-0.3633
X3.7523 Y0.155 Z-0.3619
X3.7537 Y0.1542 Z-0.3602
X3.7548 Y0.1536 Z-0.3582
X3.7556 Y0.1532 Z-0.356
X3.756 Y0.153 Z-0.3536
X3.7561 Z-0.3525
G0 Z-0.0246
X3.7369 Y1.7471
Z-0.34
G1 Z-0.3525 F40
X3.7371 Y1.7469 Z-0.3553
X3.7376 Y1.7461 Z-0.3579
X3.7385 Y1.7449 Z-0.3603
X3.7397 Y1.7433 Z-0.3623
X3.741 Y1.7414 Z-0.3638
X3.7426 Y1.7392 Z-0.3647
X3.7442 Y1.737 Z-0.365
G3 X3.768 Y1.7173 I0.0504 J0.0366
G1 X3.8227 Y1.6938
X3.8419 Y1.684
X3.9026 Y1.6466
X3.9232 Y1.6354
X3.9454 Y1.6268
X3.974 Y1.6201
G3 X4.091 Y1.6132 I0.1062 J0.8026
G1 X4.1203 Y1.6128
X4.1496 Y1.6126
X4.2083 Y1.6125
X4.443
X4.4833
X4.487
X4.4937 Y1.6096
X4.5051 Y1.6003
X4.5214 Y1.5759
X4.5291 Y1.5476
X4.5331 Y1.5186
G2 X4.5372 Y1.3427 I-2.1569 J-0.1385
G1 X4.5375 Y1.2547
Y0.3893
X4.5364 Y0.3858
X4.5329 Y0.3794
X4.523 Y0.3686
X4.4981 Y0.353
X4.4697 Y0.3456
X4.4407 Y0.3418
X4.4114 Y0.3398
G2 X4.1767 Y0.3376 I-0.1731 J6.0669
G1 X4.0167 Y0.3375
X4.0138 Y0.3372
X4.0111 Y0.3362
X4.0087 Y0.3346
X3.9426 Y0.2793
X3.9359 Y0.2743
X3.9293 Y0.2698
X3.9063 Y0.2556
G3 X3.9022 Y0.2394 I0.0069 J-0.0104
G1 X3.9037 Y0.2378 Z-0.3648
X3.9051 Y0.2362 Z-0.3642
X3.9064 Y0.2348 Z-0.3633
X3.9082 Y0.2342 Z-0.3619
X3.9097 Y0.2336 Z-0.3602
X3.911 Y0.2332 Z-0.3582
X3.9118 Y0.2329 Z-0.356
X3.9122 Y0.2328 Z-0.3536
Z-0.3525
G0 Z-0.0246
X3.8761 Y1.6807
Z-0.34
G1 Z-0.3525 F40
X3.8763 Y1.6804 Z-0.3553
X3.8767 Y1.6796 Z-0.3579
X3.8774 Y1.6783 Z-0.3603
X3.8783 Y1.6765 Z-0.3623
X3.8794 Y1.6744 Z-0.3638
X3.8806 Y1.6721 Z-0.3647
X3.8819 Y1.6696 Z-0.365
G3 X3.9026 Y1.6466 I0.0552 J0.0289
G2 X3.9559 Y1.6096 I-0.1443 J-0.264
G1 X3.9959 Y1.5761
X4.0105 Y1.565
X4.0259 Y1.5564
X4.0478 Y1.5477
X4.0763 Y1.5407
G3 X4.1932 Y1.5333 I0.1072 J0.7614
X4.4059 Y1.5325 I0.1524 J13.2536
G1 X4.4129 Y1.5302
X4.4245 Y1.5213
X4.4411 Y1.4971
X4.449 Y1.4688
X4.453 Y1.4398
G2 X4.4572 Y1.2932 I-1.7414 J-0.1229
G1 X4.4574 Y1.2639
X4.4575 Y1.1759
Y0.4719
X4.4574 Y0.4682
X4.4546 Y0.4615
X4.4454 Y0.45
X4.4211 Y0.4337
X4.3928 Y0.4259
X4.3637 Y0.422
G2 X4.1878 Y0.4178 I-0.1385 J2.1469
G1 X4.0998 Y0.4175
X4.0935
X4.09 Y0.417
X4.0868 Y0.4156
X4.0842 Y0.4133
X4.0419 Y0.3659
G2 X4.0086 Y0.3347 I-0.1646 J0.1422
G1 X4.0068 Y0.3327
X4.0055 Y0.3304
X4.0047 Y0.3279
X4.0045 Y0.3252
X4.0048 Y0.3226
X4.0056 Y0.3201
X4.007 Y0.3179
X4.0086 Y0.3165 Z-0.3648
X4.0102 Y0.3152 Z-0.3642
X4.0117 Y0.314 Z-0.3633
X4.0134 Y0.3136 Z-0.3621
X4.0149 Y0.3133 Z-0.3606
X4.0161 Y0.313 Z-0.3588
X4.017 Y0.3128 Z-0.3569
X4.0176 Z-0.3547
X4.0178 Z-0.3525
G0 Z-0.0246
X3.9746 Y1.6137
Z-0.34
G1 Z-0.3525 F40
X3.9747 Y1.6134 Z-0.3553
X3.975 Y1.6125 Z-0.3579
X3.9755 Y1.6111 Z-0.3603
X3.9761 Y1.6092 Z-0.3623
X3.9769 Y1.607 Z-0.3638
X3.9778 Y1.6045 Z-0.3647
X3.9787 Y1.6019 Z-0.365
G3 X3.9959 Y1.5761 I0.0588 J0.0206
G2 X4.0358 Y1.5409 I-0.3232 J-0.4067
G1 X4.0685 Y1.5042
X4.0776 Y1.495
X4.0887 Y1.4865
X4.1041 Y1.4776
X4.1258 Y1.4687
X4.1543 Y1.4614
G3 X4.2712 Y1.4534 I0.1085 J0.724
G1 X4.3005 Y1.4529
X4.3262 Y1.4528
X4.3331 Y1.4503
X4.3447 Y1.4413
X4.3612 Y1.4171
X4.369 Y1.3888
X4.373 Y1.3597
G2 X4.3772 Y1.1838 I-2.1326 J-0.1385
G1 X4.3775 Y1.0958
Y0.5495
X4.3765 Y0.546
X4.373 Y0.5395
X4.3631 Y0.5287
X4.3383 Y0.5131
X4.3099 Y0.5056
G2 X4.1929 Y0.4982 I-0.1094 J0.8029
G1 X4.1636 Y0.4978
X4.1533
X4.1493 Y0.4971
X4.1457 Y0.4952
X4.1429 Y0.4922
X4.1167 Y0.4524
G2 X4.0842 Y0.4133 I-0.2714 J0.193
G1 X4.0829 Y0.4116
X4.082 Y0.4096
X4.0815 Y0.4075
X4.0813 Y0.4053
X4.0815 Y0.4029
X4.0822 Y0.4006
X4.0834 Y0.3984
X4.0849 Y0.3965
X4.0867 Y0.3954 Z-0.3648
X4.0885 Y0.3944 Z-0.3642
X4.0902 Y0.3934 Z-0.3633
X4.0921 Y0.3931 Z-0.3619
X4.0938 Y0.3928 Z-0.3602
X4.0952 Y0.393 Z-0.3578
X4.0961 Y0.3931 Z-0.3552
X4.0964 Z-0.3525
G0 Z-0.0246
X4.0529 Y1.5445
Z-0.34
G1 Z-0.3525 F40
Y1.5442 Z-0.3553
X4.0531 Y1.5432 Z-0.3579
X4.0534 Y1.5418 Z-0.3603
X4.0538 Y1.5398 Z-0.3623
X4.0542 Y1.5375 Z-0.3638
X4.0547 Y1.5349 Z-0.3647
X4.0553 Y1.5322 Z-0.365
G3 X4.0685 Y1.5042 I0.0612 J0.0119
G1 X4.1041 Y1.4643
X4.1096 Y1.4576
X4.1144 Y1.451
X4.1276 Y1.431
X4.1317 Y1.4255
X4.1399 Y1.4169
X4.1513 Y1.408
X4.1666 Y1.399
X4.1884 Y1.3898
X4.2167 Y1.3822
X4.2457 Y1.3779
X4.2526 Y1.3753
X4.2642 Y1.3664
X4.2809 Y1.3422
X4.2888 Y1.314
X4.2929 Y1.2849
G2 X4.2971 Y1.1384 I-1.7128 J-0.1232
G1 X4.2974 Y1.109
X4.2975 Y1.0504
Y0.669
Y0.6287
X4.2949 Y0.6218
X4.2859 Y0.6103
X4.2616 Y0.5938
X4.2333 Y0.586
X4.2043 Y0.582
X4.2017 Y0.5818
X4.1974 Y0.5807
X4.1938 Y0.5782
X4.1913 Y0.5746
X4.1871 Y0.5656
X4.1839 Y0.5589
X4.1737 Y0.539
X4.1429 Y0.4922
G3 X4.1461 Y0.4757 I0.0107 J-0.0065
G1 X4.1481 Y0.4748 Z-0.3648
X4.15 Y0.474 Z-0.3642
X4.1518 Y0.4733 Z-0.3633
X4.1536 Y0.4732 Z-0.3621
X4.1554 Y0.4735 Z-0.3601
X4.1568 Y0.4737 Z-0.3578
X4.1577 Y0.4739 Z-0.3552
X4.1579 Z-0.3525
G0 Z-0.0246
X4.118 Y1.4731
Z-0.34
G1 Z-0.3525 F40
Y1.4728 Z-0.3553
X4.1181 Y1.4718 Z-0.3579
Y1.4703 Z-0.3603
X4.1182 Y1.4684 Z-0.3623
X4.1183 Y1.466 Z-0.3638
X4.1185 Y1.4634 Z-0.3647
X4.1186 Y1.4606 Z-0.365
G3 X4.1276 Y1.431 I0.0622 J0.0029
G1 X4.169 Y1.3682
X4.1714 Y1.3644
X4.1788 Y1.3511
X4.1824 Y1.3445
X4.2228 Y1.2579
X4.2306 Y1.238
G2 X4.2623 Y1.1312 I-2.3369 J-0.7518
X4.2801 Y1.0116 I-3.0137 J-0.5117
X4.2799 Y0.8851 I-2.2983 J-0.0594
G1 X4.275 Y0.8518
X4.2642 Y0.7786
X4.2595 Y0.7586
X4.2576 Y0.752
X4.2337 Y0.6721
X4.2316 Y0.6654
X4.227 Y0.6521
X4.2244 Y0.6455
X4.1913 Y0.5746
G3 X4.1969 Y0.5588 I0.0115 J-0.0049
G1 X4.1989 Y0.5582 Z-0.3648
X4.2009 Y0.5577 Z-0.3642
X4.2028 Y0.5572 Z-0.3633
X4.2047 Y0.5577 Z-0.3619
X4.2063 Y0.5581 Z-0.3602
X4.2076 Y0.5584 Z-0.3581
X4.2084 Y0.5587 Z-0.3559
X4.2088 Y0.5588 Z-0.3535
Z-0.3525
G0 Z-0.0246
X3.2303 Y0.1319
Z-0.34
G1 Z-0.3525 F40
X3.2301 Y0.1321 Z-0.3553
X3.2295 Y0.1328 Z-0.3579
X3.2285 Y0.1339 Z-0.3603
X3.2272 Y0.1354 Z-0.3623
X3.2256 Y0.1372 Z-0.3638
X3.2239 Y0.1392 Z-0.3647
X3.2221 Y0.1413 Z-0.365
G3 X3.1967 Y0.159 I-0.0472 J-0.0407
G1 X3.1434 Y0.1768
X3.1358 Y0.1795
X3.1168 Y0.1863
X2.9836 Y0.2357
X2.9556 Y0.2445
X2.9269 Y0.2507
G3 X2.8098 Y0.257 I-0.1084 J-0.9265
G1 X2.7805 Y0.2573
X2.7512 Y0.2574
X2.6925 Y0.2575
X2.3699
X1.4848
X1.4837 Y0.2574
X1.4825 Y0.2573
X1.4814 Y0.257
X1.4662 Y0.2527
X1.4452 Y0.2464
X1.272 Y0.1822
X1.2645 Y0.1795
X1.2568 Y0.1769
G3 X1.2491 Y0.1619 I0.0044 J-0.0117
G1 X1.2501 Y0.16 Z-0.3648
X1.2511 Y0.1582 Z-0.3642
X1.2521 Y0.1565 Z-0.3633
X1.2537 Y0.1555 Z-0.3619
X1.2551 Y0.1546 Z-0.3602
X1.2562 Y0.154 Z-0.3582
X1.2569 Y0.1535 Z-0.356
X1.2573 Y0.1533 Z-0.3536
Y0.1532 Z-0.3525
G0 Z-0.0246
X3.0162 Y0.2075
Z-0.34
G1 Z-0.3525 F40
X3.016 Y0.2078 Z-0.3553
X3.0154 Y0.2085 Z-0.3579
X3.0145 Y0.2096 Z-0.3603
X3.0133 Y0.2112 Z-0.3623
X3.0118 Y0.213 Z-0.3638
X3.0101 Y0.2151 Z-0.3647
X3.0084 Y0.2172 Z-0.365
G3 X2.9836 Y0.2357 I-0.0485 J-0.0391
G1 X2.9636 Y0.2431
X2.9436 Y0.2498
X2.937 Y0.2518
X2.7905 Y0.2934
X2.7838 Y0.2952
X2.7638 Y0.3005
X2.7572 Y0.302
X2.6373 Y0.3259
G3 X2.4913 Y0.3368 I-0.133 J-0.7982
G1 X2.4619 Y0.3372
X2.4326 Y0.3374
X2.3739 Y0.3375
X2.0806
X1.8235
X1.8227
X1.822 Y0.3374
X1.8212 Y0.3373
X1.8048 Y0.3343
X1.7959 Y0.3326
X1.645 Y0.3024
X1.6383 Y0.301
X1.625 Y0.2977
X1.6183 Y0.2959
X1.4814 Y0.257
G3 X1.473 Y0.2425 I0.0038 J-0.0119
G1 X1.474 Y0.2406 Z-0.3648
X1.4749 Y0.2387 Z-0.3642
X1.4758 Y0.237 Z-0.3633
X1.4774 Y0.2358 Z-0.3619
X1.4787 Y0.2349 Z-0.3602
X1.4798 Y0.2342 Z-0.3582
X1.4805 Y0.2337 Z-0.356
X1.4808 Y0.2334 Z-0.3536
X1.4809 Z-0.3525
G0 Z-0.0246
X2.674 Y0.3032
Z-0.34
G1 Z-0.3525 F40
X2.6738 Y0.3034 Z-0.3553
X2.6731 Y0.304 Z-0.3579
X2.672 Y0.305 Z-0.3603
X2.6705 Y0.3063 Z-0.3623
X2.6687 Y0.3079 Z-0.3638
X2.6668 Y0.3097 Z-0.3647
X2.6647 Y0.3116 Z-0.365
G3 X2.6373 Y0.3259 I-0.0417 J-0.0463
G1 X2.584 Y0.3366
G3 X2.4042 Y0.3582 I-1.0925 J-8.3105
G1 X2.3842 Y0.3601
X2.3776 Y0.3604
X2.2044 Y0.3673
X2.1844 Y0.3668
X2.1778 Y0.3666
X2.0312 Y0.3608
X2.0246 Y0.3605
X2.0037 Y0.3592
X1.9913 Y0.3578
X1.8248 Y0.3379
X1.8212 Y0.3373
G3 X1.8114 Y0.3251 I0.0027 J-0.0122
G1 Y0.3246
Y0.3241
X1.8115 Y0.3236
X1.8123 Y0.3216 Z-0.3648
X1.813 Y0.3197 Z-0.3642
X1.8137 Y0.3179 Z-0.3633
X1.8152 Y0.3166 Z-0.3619
X1.8164 Y0.3156 Z-0.3602
X1.8174 Y0.3147 Z-0.3582
X1.818 Y0.3142 Z-0.356
X1.8184 Y0.3139 Z-0.3536
Y0.3138 Z-0.3525
G0 Z-0.0246
X0.7206 Y0.1354
Z-0.34
G1 Z-0.3525 F40
X0.7204 Y0.1356 Z-0.3553
X0.7198 Y0.1363 Z-0.3579
X0.7188 Y0.1374 Z-0.3603
X0.7174 Y0.1388 Z-0.3623
X0.7158 Y0.1406 Z-0.3638
X0.714 Y0.1425 Z-0.3647
X0.7121 Y0.1445 Z-0.365
G3 X0.686 Y0.1611 I-0.0454 J-0.0427
G1 X0.6793 Y0.163
X0.6727 Y0.1653
G2 X0.5636 Y0.2126 I1.1627 J2.829
G1 X0.5417 Y0.2261
X0.526 Y0.2347
X0.5038 Y0.2432
X0.4753 Y0.2499
G3 X0.3876 Y0.2565 I-0.1026 J-0.7796
G1 X0.3809 Y0.2597
X0.3696 Y0.2691
X0.3535 Y0.2936
X0.3458 Y0.3219
X0.3419 Y0.351
X0.3398 Y0.3802
Y0.3821
X0.3393 Y0.385
X0.3383 Y0.3877
X0.3366 Y0.39
G3 X0.3198 Y0.3912 I-0.009 J-0.0086
G1 X0.3185 Y0.3895 Z-0.3648
X0.3173 Y0.3879 Z-0.3642
X0.3161 Y0.3863 Z-0.3633
X0.3157 Y0.3843 Z-0.3619
X0.3153 Y0.3826 Z-0.36
X0.3151 Y0.3814 Z-0.3578
Y0.3805 Z-0.3552
Y0.3802 Z-0.3525
G0 Z-0.0246
X0.5682 Y0.192
Z-0.34
G1 Z-0.3525 F40
X0.5681 Y0.1923 Z-0.3553
X0.5677 Y0.1931 Z-0.3579
X0.567 Y0.1944 Z-0.3603
X0.5661 Y0.1962 Z-0.3623
X0.565 Y0.1983 Z-0.3638
X0.5637 Y0.2006 Z-0.3647
X0.5624 Y0.2031 Z-0.365
G3 X0.5417 Y0.2261 I-0.0552 J-0.0289
G1 X0.4795 Y0.2644
G2 X0.4396 Y0.2942 I0.1233 J0.2069
G1 X0.3858 Y0.3392
G2 X0.3581 Y0.3659 I0.1187 J0.1511
G1 X0.3047 Y0.4258
X0.2997 Y0.4316
X0.2864 Y0.4483
X0.2833 Y0.4524
X0.2555 Y0.4946
G3 X0.2391 Y0.4982 I-0.0102 J-0.0072
G1 X0.2375 Y0.4967 Z-0.3648
X0.236 Y0.4953 Z-0.3642
X0.2346 Y0.4939 Z-0.3633
X0.2341 Y0.4921 Z-0.3619
X0.2336 Y0.4905 Z-0.3602
X0.2332 Y0.4893 Z-0.3582
X0.2329 Y0.4885 Z-0.356
X0.2328 Y0.488 Z-0.3536
Z-0.3525
G0 Z-0.0246
X-0.0098 Y-0.1331
Z-0.3538
G1 Z-0.445 F40
G3 X0 Y-0.0651 I-0.3091 J0.0792
G1 Y-0.0614
X0.0082 Y-0.0332
G3 X0.0167 Y0.0836 I-0.6498 J0.1058
X0.0175 Y0.2596 I-9.4631 J0.1315
G1 Y1.8913
X0.0189 Y1.8947
X0.0291 Y1.9052
X0.0547 Y1.9197
X0.0833 Y1.9262
G2 X0.2004 Y1.932 I0.1068 J-0.9604
G1 X0.2297 Y1.9323
X0.259 Y1.9324
X0.3177 Y1.9325
X0.8164
X2.019
X4.0137
X4.8167
X4.8201 Y1.9311
X4.8305 Y1.9207
X4.8448 Y1.8951
X4.8512 Y1.8665
G2 X4.857 Y1.7494 I-0.968 J-0.1068
G1 X4.8573 Y1.7201
X4.8574 Y1.6907
X4.8575 Y1.6321
Y1.1334
Y0.7521
Y0.0591
X4.8561 Y0.0557
X4.846 Y0.045
X4.8206 Y0.0304
X4.792 Y0.0239
G2 X4.6749 Y0.018 I-0.1068 J0.9529
G1 X4.6455 Y0.0177
X4.6162 Y0.0176
X4.5575 Y0.0175
X4.0882
X3.5895
X1.5949
X0.1356
X0.1322 Y0.0189
X0.122 Y0.0295
X0.1087 Y0.0556
X0.1029 Y0.0844
G2 X0.0979 Y0.2016 I1.0328 J0.1023
G1 X0.0977 Y0.2309
X0.0975 Y0.2896
Y0.5242
Y1.8039
X0.1004 Y1.8106
X0.11 Y1.8217
X0.1347 Y1.8374
X0.1631 Y1.8448
G2 X0.2802 Y1.8518 I0.1085 J-0.8233
G1 X0.3095 Y1.8522
X0.3388 Y1.8523
X0.3975 Y1.8525
X0.6028
X0.7788
X2.7735
X4.7278
X4.7347 Y1.8501
X4.7461 Y1.8408
X4.7622 Y1.8163
X4.7696 Y1.7879
G2 X4.7768 Y1.6709 I-0.8092 J-0.1085
G1 X4.7772 Y1.6416
X4.7773 Y1.6123
X4.7775 Y1.5536
Y1.3483
Y0.1456
X4.7746 Y0.1388
X4.7648 Y0.1279
X4.7399 Y0.1124
X4.7115 Y0.1051
G2 X4.5945 Y0.0981 I-0.1085 J0.8315
G1 X4.5652 Y0.0978
X4.5358 Y0.0977
X4.5065 Y0.0976
X4.4185 Y0.0975
X2.5118
X0.5172
X0.2275
X0.2239 Y0.0981
X0.2175 Y0.1017
X0.2069 Y0.1118
X0.1918 Y0.137
X0.1848 Y0.1655
G2 X0.1781 Y0.2825 I0.8645 J0.1081
G1 X0.1778 Y0.3118
X0.1776 Y0.3412
X0.1775 Y0.3998
Y0.6386
X0.1774 Y0.6405
X0.177 Y0.6422
X0.1763 Y0.6439
G2 X0.1663 Y0.6721 I0.1569 J0.0714
G1 X0.1423 Y0.752
X0.1404 Y0.7586
X0.1373 Y0.772
X0.1357 Y0.7786
X0.123 Y0.8652
X0.1199 Y0.8875
G2 X0.1196 Y0.9983 I3.0386 J0.0642
G1 X0.1206 Y1.0183
X0.1343 Y1.1115
G2 X0.1434 Y1.1514 I0.199 J-0.0245
G1 X0.1599 Y1.2065
G3 X0.1759 Y1.3223 I-0.4184 J0.1171
X0.1775 Y1.4983 I-5.8738 J0.1398
G1 Y1.722
X0.1801 Y1.7288
X0.1893 Y1.7403
X0.2137 Y1.7566
X0.242 Y1.7642
X0.2711 Y1.7682
G2 X0.447 Y1.7722 I0.1381 J-2.1912
G1 X0.535 Y1.7725
X0.8325
X0.8335 Y1.7726
X0.9057 Y1.7809
X0.9124 Y1.7815
G2 X1.0323 Y1.7781 I-0.0034 J-2.2114
G3 X1.2082 Y1.7728 I0.1498 J2.0562
G1 X1.2668 Y1.7725
X1.5602
X3.0268
X3.3305
X3.3312
X3.332 Y1.7726
X3.3327 Y1.7727
X3.3583 Y1.7772
X3.3632 Y1.7778
X3.3832 Y1.7788
X3.4698 Y1.7815
G2 X3.5097 Y1.7791 I0.0053 J-0.2486
G3 X3.7149 Y1.7728 I0.1671 J2.0873
G1 X3.8029 Y1.7725
X4.6462
X4.6497 Y1.7714
X4.6561 Y1.7679
X4.6669 Y1.7579
X4.6823 Y1.7329
X4.6896 Y1.7045
G2 X4.6968 Y1.5875 I-0.8189 J-0.109
X4.6975 Y1.2942 I-22.6279 J-0.1996
G1 Y0.9422
Y0.2272
X4.6946 Y0.2205
X4.6852 Y0.2092
X4.6606 Y0.1932
X4.6323 Y0.1856
G2 X4.5153 Y0.1782 I-0.1091 J0.7929
X4.2513 Y0.1775 I-0.1847 J19.54
G1 X3.7585
X3.7568 Y0.1774
X3.7551 Y0.177
X3.7535 Y0.1765
G2 X3.7095 Y0.1597 I-0.1423 J0.3067
G1 X3.6229 Y0.1366
X3.6029 Y0.1318
G2 X3.4897 Y0.1188 I-0.9331 J7.5916
G1 X3.4764 Y0.1186
X3.4698 Y0.1185
X3.3832 Y0.1212
X3.3632 Y0.1222
G2 X3.25 Y0.1422 I0.5232 J3.3055
G1 X3.2353 Y0.1462
X3.23 Y0.1479
X3.1967 Y0.159
X3.1684 Y0.1669
X3.1396 Y0.1719
G3 X2.9931 Y0.1771 I-0.1209 J-1.3485
G1 X2.9637 Y0.1774
X2.9051 Y0.1775
X2.2597
X1.2607
X1.2594 Y0.1774
X1.2581 Y0.1772
X1.2568 Y0.1769
X1.1655 Y0.1464
X1.1588 Y0.1443
X1.1522 Y0.1427
X1.1358 Y0.1395
X1.0523 Y0.1246
X1.0456 Y0.1236
X1.0256 Y0.1214
X0.939 Y0.1188
G2 X0.8924 Y0.1207 I-0.0145 J0.2122
G1 X0.8125 Y0.1298
X0.8058 Y0.1307
X0.7859 Y0.1343
G2 X0.686 Y0.1611 I0.8807 J3.4852
G3 X0.5699 Y0.176 I-0.1152 J-0.4364
X0.3096 Y0.1774 I-0.178 J-9.3627
G1 X0.306 Y0.1783
X0.2995 Y0.1817
X0.2885 Y0.1914
X0.2729 Y0.2162
X0.2654 Y0.2446
G2 X0.2582 Y0.3616 I0.8103 J0.109
G3 X0.2573 Y0.4901 I-10.1289 J-0.0033
G1 X0.2566 Y0.4924
X0.2555 Y0.4946
X0.2263 Y0.539
X0.216 Y0.5589
X0.1763 Y0.6439
G2 X0.1661 Y0.6731 I0.1526 J0.0701
G1 X0.1423 Y0.752
X0.1404 Y0.7586
X0.1373 Y0.772
X0.1357 Y0.7786
X0.123 Y0.8652
X0.1199 Y0.8875
G2 X0.1201 Y1.0116 I2.1844 J0.0589
G1 X0.1206 Y1.0183
X0.1333 Y1.1048
G2 X0.1511 Y1.1768 I0.3553 J-0.0497
G1 X0.1599 Y1.2065
G2 X0.177 Y1.258 I0.3424 J-0.0856
G1 X0.2176 Y1.3445
X0.2198 Y1.3485
X0.2264 Y1.3604
X0.2373 Y1.3822
X0.2458 Y1.4073
X0.2513 Y1.4361
G3 X0.257 Y1.5532 I-1.0268 J0.1085
G1 X0.2573 Y1.5826
X0.2574 Y1.6119
Y1.6412
X0.2598 Y1.6482
X0.2688 Y1.6598
X0.2931 Y1.6763
X0.3213 Y1.6841
X0.3504 Y1.688
G2 X0.5263 Y1.6922 I0.1383 J-2.1449
G1 X0.5718 Y1.6925
X0.5735 Y1.6926
X0.5752 Y1.6929
X0.5768 Y1.6935
G2 X0.6793 Y1.7373 I1.8281 J-4.1383
G1 X0.6993 Y1.7427
X0.7792 Y1.764
G2 X0.8335 Y1.7725 I0.0807 J-0.336
G1 X0.836 Y1.7731
X0.8384 Y1.7742
X0.8404 Y1.7757
X0.8422 Y1.7776
X0.844 Y1.7796
X0.8462 Y1.7812
X0.8487 Y1.7822
X0.8501 Y1.7825 Z-0.4449
X0.8514 Y1.7827 Z-0.4447
X0.8541 Y1.7829 Z-0.4438
X0.8564 Y1.783 Z-0.4423
X0.8584 Y1.7832 Z-0.4403
X0.8599 Y1.7833 Z-0.4379
X0.8608 Z-0.4353
X0.8611 Y1.7834 Z-0.4325
G0 Z-0.0246
X0.1935 Y1.3325
Z-0.42
G1 Z-0.4325 F40
X0.1938 Y1.3327 Z-0.4353
X0.1946 Y1.3332 Z-0.4379
X0.1959 Y1.3339 Z-0.4403
X0.1976 Y1.3349 Z-0.4423
X0.1996 Y1.3361 Z-0.4438
X0.2019 Y1.3374 Z-0.4447
X0.2043 Y1.3388 Z-0.445
G3 X0.2264 Y1.3604 I-0.0311 J0.054
G1 X0.2287 Y1.3644
X0.2331 Y1.3714
X0.2811 Y1.4443
X0.2864 Y1.4523
X0.2906 Y1.4576
X0.2962 Y1.4643
X0.3048 Y1.4755
X0.3134 Y1.4906
X0.322 Y1.5119
X0.3292 Y1.5404
X0.3311 Y1.5549
X0.3319 Y1.5622
X0.3351 Y1.5688
X0.3445 Y1.5801
X0.3689 Y1.5963
X0.3972 Y1.604
X0.4263 Y1.608
X0.4396 Y1.6089
X0.4422 Y1.6094
X0.4446 Y1.6104
X0.4467 Y1.6118
G3 X0.4485 Y1.6285 I-0.0084 J0.0093
G1 X0.4468 Y1.6299 Z-0.4448
X0.4452 Y1.6312 Z-0.4442
X0.4437 Y1.6324 Z-0.4433
X0.442 Y1.6328 Z-0.4421
X0.4405 Y1.6332 Z-0.4406
X0.4393 Y1.6334 Z-0.4388
X0.4384 Y1.6336 Z-0.4369
X0.4378 Z-0.4347
X0.4376 Z-0.4325
G0 Z-0.0246
X0.2586 Y1.4432
Z-0.42
G1 Z-0.4325 F40
X0.2589 Y1.4433 Z-0.4353
X0.2598 Y1.4436 Z-0.4379
X0.2612 Y1.4441 Z-0.4403
X0.263 Y1.4448 Z-0.4423
X0.2653 Y1.4455 Z-0.4438
X0.2678 Y1.4464 Z-0.4447
X0.2704 Y1.4473 Z-0.445
G3 X0.2962 Y1.4643 I-0.0203 J0.0589
G2 X0.3672 Y1.5442 I2.3273 J-1.996
G1 X0.373 Y1.5496
G2 X0.4661 Y1.6274 I1.5512 J-1.7633
G1 X0.4715 Y1.6307
X0.5461 Y1.6766
X0.5661 Y1.6887
X0.5728 Y1.6917
X0.5768 Y1.6935
G3 X0.5831 Y1.7091 I-0.0055 J0.0112
G1 X0.5818 Y1.7109 Z-0.4448
X0.5807 Y1.7126 Z-0.4442
X0.5795 Y1.7142 Z-0.4433
X0.5778 Y1.7151 Z-0.4419
X0.5764 Y1.7158 Z-0.4402
X0.5752 Y1.7164 Z-0.4382
X0.5744 Y1.7168 Z-0.436
X0.574 Y1.717 Z-0.4336
Z-0.4325
G0 Z-0.0246
X1.004 Y1.7895
Z-0.4325
G1 Z-0.445 F40
G3 X1.0323 Y1.7779 I0.0372 J0.05
G1 X1.0456 Y1.7764
G2 X1.1527 Y1.7572 I-0.4306 J-2.7087
X1.2736 Y1.7173 I-0.7043 J-2.3323
G1 X1.2854 Y1.7129
X1.3133 Y1.7041
X1.3421 Y1.6986
G3 X1.4593 Y1.693 I0.1083 J1.0382
G1 X1.4886 Y1.6927
X1.5179 Y1.6926
X1.5766 Y1.6925
X2.0459
X3.0574
X3.0589 Y1.6926
X3.0603 Y1.6928
X3.0618 Y1.6933
G2 X3.2499 Y1.758 I0.9923 J-2.579
G1 X3.2566 Y1.7591
X3.3327 Y1.7727
G3 X3.341 Y1.7783 I-0.0022 J0.0123
G1 X3.3427 Y1.7804
X3.3448 Y1.782
X3.3472 Y1.7832
X3.3489 Y1.7836 Z-0.4449
X3.3506 Y1.784 Z-0.4445
X3.353 Y1.7842 Z-0.4435
X3.3553 Y1.7843 Z-0.442
X3.3571 Y1.7845 Z-0.44
X3.3585 Y1.7846 Z-0.4377
X3.3593 Y1.7847 Z-0.4352
X3.3596 Z-0.4325
G0 Z-0.0246
X1.2527 Y1.7411
Z-0.42
G1 Z-0.4325 F40
X1.2529 Y1.7409 Z-0.4353
X1.2535 Y1.7402 Z-0.4379
X1.2544 Y1.739 Z-0.4403
X1.2557 Y1.7375 Z-0.4423
X1.2572 Y1.7356 Z-0.4438
X1.2588 Y1.7336 Z-0.4447
X1.2606 Y1.7314 Z-0.445
G3 X1.2854 Y1.7129 I0.0485 J0.0391
G1 X1.4452 Y1.6536
X1.4585 Y1.6495
X1.4652 Y1.6476
X1.5318 Y1.6287
G3 X1.6479 Y1.6139 I0.1156 J0.4453
X1.8532 Y1.6125 I0.1548 J7.454
G1 X2.8094
X2.8105 Y1.6126
X2.8117 Y1.6127
X2.8128 Y1.613
X2.937 Y1.6482
X2.9436 Y1.6502
X2.9636 Y1.6569
X3.0618 Y1.6933
G3 X3.069 Y1.7085 I-0.0048 J0.0116
G1 X3.0679 Y1.7103 Z-0.4448
X3.0668 Y1.7121 Z-0.4442
X3.0658 Y1.7137 Z-0.4433
X3.0641 Y1.7147 Z-0.4419
X3.0627 Y1.7155 Z-0.4402
X3.0616 Y1.7162 Z-0.4382
X3.0609 Y1.7166 Z-0.436
X3.0605 Y1.7168 Z-0.4336
X3.0604 Y1.7169 Z-0.4325
G0 Z-0.0246
X1.497 Y1.6543
Z-0.42
G1 Z-0.4325 F40
X1.4972 Y1.654 Z-0.4353
X1.4979 Y1.6534 Z-0.4379
X1.4989 Y1.6523 Z-0.4403
X1.5002 Y1.6508 Z-0.4423
X1.5019 Y1.6491 Z-0.4438
X1.5037 Y1.6472 Z-0.4447
X1.5056 Y1.6452 Z-0.445
G3 X1.5318 Y1.6287 I0.0452 J0.0428
G1 X1.6185 Y1.6041
X1.625 Y1.6023
X1.6459 Y1.5974
X1.7982 Y1.567
X1.8048 Y1.5657
X1.8248 Y1.5621
X1.9979 Y1.5414
X2.0046 Y1.5407
G3 X2.1844 Y1.5332 I0.3544 J6.3387
G1 X2.2044 Y1.5327
X2.3776 Y1.5396
X2.3842 Y1.5399
X2.4042 Y1.5417
G3 X2.584 Y1.5634 I-0.9876 J8.9633
G1 X2.7572 Y1.598
X2.7638 Y1.5995
X2.7838 Y1.6048
X2.8128 Y1.613
G3 X2.8212 Y1.6275 I-0.0038 J0.0119
G1 X2.8202 Y1.6294 Z-0.4448
X2.8193 Y1.6313 Z-0.4442
X2.8184 Y1.633 Z-0.4433
X2.8168 Y1.6342 Z-0.4419
X2.8155 Y1.6351 Z-0.4402
X2.8144 Y1.6358 Z-0.4382
X2.8137 Y1.6363 Z-0.436
X2.8134 Y1.6366 Z-0.4336
X2.8133 Z-0.4325
G0 Z-0.0246
X3.4815 Y1.791
Z-0.4325
G1 Z-0.445 F40
G3 X3.5097 Y1.7791 I0.0375 J0.0498
G1 X3.5896 Y1.7699
X3.5963 Y1.7691
X3.6029 Y1.7682
G2 X3.7206 Y1.7372 I-0.5774 J-2.4341
G1 X3.7295 Y1.7337
X3.7371 Y1.7306
X3.768 Y1.7173
X3.7955 Y1.7071
X3.8241 Y1.7002
G3 X3.9411 Y1.6932 I0.1058 J0.7862
G1 X3.9704 Y1.6928
X3.9997 Y1.6926
X4.0584 Y1.6925
X4.3224
X4.5644
X4.568 Y1.6918
X4.5746 Y1.6886
X4.5857 Y1.6791
X4.6017 Y1.6545
X4.6093 Y1.6261
G2 X4.6168 Y1.5091 I-0.7905 J-0.1093
X4.6175 Y1.3331 I-11.8133 J-0.136
G1 Y0.5412
Y0.3102
X4.6168 Y0.3066
X4.6135 Y0.3
X4.6038 Y0.289
X4.5791 Y0.2732
X4.5508 Y0.2656
G2 X4.4338 Y0.2582 I-0.1093 J0.7972
X4.2578 Y0.2575 I-0.136 J11.9445
G1 X3.9129
X3.9106 Y0.2573
X3.9084 Y0.2567
X3.9063 Y0.2556
X3.8427 Y0.2165
G2 X3.8094 Y0.2005 I-0.115 J0.1974
G1 X3.7535 Y0.1765
G3 X3.7471 Y0.161 I0.0053 J-0.0113
G1 X3.7483 Y0.1592 Z-0.4448
X3.7495 Y0.1575 Z-0.4442
X3.7505 Y0.1559 Z-0.4433
X3.7523 Y0.155 Z-0.4419
X3.7537 Y0.1542 Z-0.4402
X3.7548 Y0.1536 Z-0.4382
X3.7556 Y0.1532 Z-0.436
X3.756 Y0.153 Z-0.4336
X3.7561 Z-0.4325
G0 Z-0.0246
X3.7369 Y1.7471
Z-0.42
G1 Z-0.4325 F40
X3.7371 Y1.7469 Z-0.4353
X3.7376 Y1.7461 Z-0.4379
X3.7385 Y1.7449 Z-0.4403
X3.7397 Y1.7433 Z-0.4423
X3.741 Y1.7414 Z-0.4438
X3.7426 Y1.7392 Z-0.4447
X3.7442 Y1.737 Z-0.445
G3 X3.768 Y1.7173 I0.0504 J0.0366
G1 X3.8227 Y1.6938
X3.8419 Y1.684
X3.9026 Y1.6466
X3.9232 Y1.6354
X3.9454 Y1.6268
X3.974 Y1.6201
G3 X4.091 Y1.6132 I0.1062 J0.8026
G1 X4.1203 Y1.6128
X4.1496 Y1.6126
X4.2083 Y1.6125
X4.443
X4.4833
X4.487
X4.4937 Y1.6096
X4.5051 Y1.6003
X4.5214 Y1.5759
X4.5291 Y1.5476
X4.5331 Y1.5186
G2 X4.5372 Y1.3427 I-2.1569 J-0.1385
G1 X4.5375 Y1.2547
Y0.3893
X4.5364 Y0.3858
X4.5329 Y0.3794
X4.523 Y0.3686
X4.4981 Y0.353
X4.4697 Y0.3456
X4.4407 Y0.3418
X4.4114 Y0.3398
G2 X4.1767 Y0.3376 I-0.1731 J6.0669
G1 X4.0167 Y0.3375
X4.0138 Y0.3372
X4.0111 Y0.3362
X4.0087 Y0.3346
X3.9426 Y0.2793
X3.9359 Y0.2743
X3.9293 Y0.2698
X3.9063 Y0.2556
G3 X3.9022 Y0.2394 I0.0069 J-0.0104
G1 X3.9037 Y0.2378 Z-0.4448
X3.9051 Y0.2362 Z-0.4442
X3.9064 Y0.2348 Z-0.4433
X3.9082 Y0.2342 Z-0.4419
X3.9097 Y0.2336 Z-0.4402
X3.911 Y0.2332 Z-0.4382
X3.9118 Y0.2329 Z-0.436
X3.9122 Y0.2328 Z-0.4336
Z-0.4325
G0 Z-0.0246
X3.8761 Y1.6807
Z-0.42
G1 Z-0.4325 F40
X3.8763 Y1.6804 Z-0.4353
X3.8767 Y1.6796 Z-0.4379
X3.8774 Y1.6783 Z-0.4403
X3.8783 Y1.6765 Z-0.4423
X3.8794 Y1.6744 Z-0.4438
X3.8806 Y1.6721 Z-0.4447
X3.8819 Y1.6696 Z-0.445
G3 X3.9026 Y1.6466 I0.0552 J0.0289
G2 X3.9559 Y1.6096 I-0.1443 J-0.264
G1 X3.9959 Y1.5761
X4.0105 Y1.565
X4.0259 Y1.5564
X4.0478 Y1.5477
X4.0763 Y1.5407
G3 X4.1932 Y1.5333 I0.1072 J0.7614
X4.4059 Y1.5325 I0.1524 J13.2536
G1 X4.4129 Y1.5302
X4.4245 Y1.5213
X4.4411 Y1.4971
X4.449 Y1.4688
X4.453 Y1.4398
G2 X4.4572 Y1.2932 I-1.7414 J-0.1229
G1 X4.4574 Y1.2639
X4.4575 Y1.1759
Y0.4719
X4.4574 Y0.4682
X4.4546 Y0.4615
X4.4454 Y0.45
X4.4211 Y0.4337
X4.3928 Y0.4259
X4.3637 Y0.422
G2 X4.1878 Y0.4178 I-0.1385 J2.1469
G1 X4.0998 Y0.4175
X4.0935
X4.09 Y0.417
X4.0868 Y0.4156
X4.0842 Y0.4133
X4.0419 Y0.3659
G2 X4.0086 Y0.3347 I-0.1646 J0.1422
G1 X4.0068 Y0.3327
X4.0055 Y0.3304
X4.0047 Y0.3279
X4.0045 Y0.3252
X4.0048 Y0.3226
X4.0056 Y0.3201
X4.007 Y0.3179
X4.0086 Y0.3165 Z-0.4448
X4.0102 Y0.3152 Z-0.4442
X4.0117 Y0.314 Z-0.4433
X4.0134 Y0.3136 Z-0.4421
X4.0149 Y0.3133 Z-0.4406
X4.0161 Y0.313 Z-0.4388
X4.017 Y0.3128 Z-0.4369
X4.0176 Z-0.4347
X4.0178 Z-0.4325
G0 Z-0.0246
X3.9746 Y1.6137
Z-0.42
G1 Z-0.4325 F40
X3.9747 Y1.6134 Z-0.4353
X3.975 Y1.6125 Z-0.4379
X3.9755 Y1.6111 Z-0.4403
X3.9761 Y1.6092 Z-0.4423
X3.9769 Y1.607 Z-0.4438
X3.9778 Y1.6045 Z-0.4447
X3.9787 Y1.6019 Z-0.445
G3 X3.9959 Y1.5761 I0.0588 J0.0206
G2 X4.0358 Y1.5409 I-0.3232 J-0.4067
G1 X4.0685 Y1.5042
X4.0776 Y1.495
X4.0887 Y1.4865
X4.1041 Y1.4776
X4.1258 Y1.4687
X4.1543 Y1.4614
G3 X4.2712 Y1.4534 I0.1085 J0.724
G1 X4.3005 Y1.4529
X4.3262 Y1.4528
X4.3331 Y1.4503
X4.3447 Y1.4413
X4.3612 Y1.4171
X4.369 Y1.3888
X4.373 Y1.3597
G2 X4.3772 Y1.1838 I-2.1326 J-0.1385
G1 X4.3775 Y1.0958
Y0.5495
X4.3765 Y0.546
X4.373 Y0.5395
X4.3631 Y0.5287
X4.3383 Y0.5131
X4.3099 Y0.5056
G2 X4.1929 Y0.4982 I-0.1094 J0.8029
G1 X4.1636 Y0.4978
X4.1533
X4.1493 Y0.4971
X4.1457 Y0.4952
X4.1429 Y0.4922
X4.1167 Y0.4524
G2 X4.0842 Y0.4133 I-0.2714 J0.193
G1 X4.0829 Y0.4116
X4.082 Y0.4096
X4.0815 Y0.4075
X4.0813 Y0.4053
X4.0815 Y0.4029
X4.0822 Y0.4006
X4.0834 Y0.3984
X4.0849 Y0.3965
X4.0867 Y0.3954 Z-0.4448
X4.0885 Y0.3944 Z-0.4442
X4.0902 Y0.3934 Z-0.4433
X4.0921 Y0.3931 Z-0.4419
X4.0938 Y0.3928 Z-0.4402
X4.0952 Y0.393 Z-0.4378
X4.0961 Y0.3931 Z-0.4352
X4.0964 Z-0.4325
G0 Z-0.0246
X4.0529 Y1.5445
Z-0.42
G1 Z-0.4325 F40
Y1.5442 Z-0.4353
X4.0531 Y1.5432 Z-0.4379
X4.0534 Y1.5418 Z-0.4403
X4.0538 Y1.5398 Z-0.4423
X4.0542 Y1.5375 Z-0.4438
X4.0547 Y1.5349 Z-0.4447
X4.0553 Y1.5322 Z-0.445
G3 X4.0685 Y1.5042 I0.0612 J0.0119
G1 X4.1041 Y1.4643
X4.1096 Y1.4576
X4.1144 Y1.451
X4.1276 Y1.431
X4.1317 Y1.4255
X4.1399 Y1.4169
X4.1513 Y1.408
X4.1666 Y1.399
X4.1884 Y1.3898
X4.2167 Y1.3822
X4.2457 Y1.3779
X4.2526 Y1.3753
X4.2642 Y1.3664
X4.2809 Y1.3422
X4.2888 Y1.314
X4.2929 Y1.2849
G2 X4.2971 Y1.1384 I-1.7128 J-0.1232
G1 X4.2974 Y1.109
X4.2975 Y1.0504
Y0.669
Y0.6287
X4.2949 Y0.6218
X4.2859 Y0.6103
X4.2616 Y0.5938
X4.2333 Y0.586
X4.2043 Y0.582
X4.2017 Y0.5818
X4.1974 Y0.5807
X4.1938 Y0.5782
X4.1913 Y0.5746
X4.1871 Y0.5656
X4.1839 Y0.5589
X4.1737 Y0.539
X4.1429 Y0.4922
G3 X4.1461 Y0.4757 I0.0107 J-0.0065
G1 X4.1481 Y0.4748 Z-0.4448
X4.15 Y0.474 Z-0.4442
X4.1518 Y0.4733 Z-0.4433
X4.1536 Y0.4732 Z-0.4421
X4.1554 Y0.4735 Z-0.4401
X4.1568 Y0.4737 Z-0.4378
X4.1577 Y0.4739 Z-0.4352
X4.1579 Z-0.4325
G0 Z-0.0246
X4.118 Y1.4731
Z-0.42
G1 Z-0.4325 F40
Y1.4728 Z-0.4353
X4.1181 Y1.4718 Z-0.4379
Y1.4703 Z-0.4403
X4.1182 Y1.4684 Z-0.4423
X4.1183 Y1.466 Z-0.4438
X4.1185 Y1.4634 Z-0.4447
X4.1186 Y1.4606 Z-0.445
G3 X4.1276 Y1.431 I0.0622 J0.0029
G1 X4.169 Y1.3682
X4.1714 Y1.3644
X4.1788 Y1.3511
X4.1824 Y1.3445
X4.2228 Y1.2579
X4.2306 Y1.238
G2 X4.2623 Y1.1312 I-2.3369 J-0.7518
X4.2801 Y1.0116 I-3.0137 J-0.5117
X4.2799 Y0.8851 I-2.2983 J-0.0594
G1 X4.275 Y0.8518
X4.2642 Y0.7786
X4.2595 Y0.7586
X4.2576 Y0.752
X4.2337 Y0.6721
X4.2316 Y0.6654
X4.227 Y0.6521
X4.2244 Y0.6455
X4.1913 Y0.5746
G3 X4.1969 Y0.5588 I0.0115 J-0.0049
G1 X4.1989 Y0.5582 Z-0.4448
X4.2009 Y0.5577 Z-0.4442
X4.2028 Y0.5572 Z-0.4433
X4.2047 Y0.5577 Z-0.4419
X4.2063 Y0.5581 Z-0.4402
X4.2076 Y0.5584 Z-0.4381
X4.2084 Y0.5587 Z-0.4359
X4.2088 Y0.5588 Z-0.4335
Z-0.4325
G0 Z-0.0246
X3.2303 Y0.1319
Z-0.42
G1 Z-0.4325 F40
X3.2301 Y0.1321 Z-0.4353
X3.2295 Y0.1328 Z-0.4379
X3.2285 Y0.1339 Z-0.4403
X3.2272 Y0.1354 Z-0.4423
X3.2256 Y0.1372 Z-0.4438
X3.2239 Y0.1392 Z-0.4447
X3.2221 Y0.1413 Z-0.445
G3 X3.1967 Y0.159 I-0.0472 J-0.0407
G1 X3.1434 Y0.1768
X3.1358 Y0.1795
X3.1168 Y0.1863
X2.9836 Y0.2357
X2.9556 Y0.2445
X2.9269 Y0.2507
G3 X2.8098 Y0.257 I-0.1084 J-0.9265
G1 X2.7805 Y0.2573
X2.7512 Y0.2574
X2.6925 Y0.2575
X2.3699
X1.4848
X1.4837 Y0.2574
X1.4825 Y0.2573
X1.4814 Y0.257
X1.4662 Y0.2527
X1.4452 Y0.2464
X1.272 Y0.1822
X1.2645 Y0.1795
X1.2568 Y0.1769
G3 X1.2491 Y0.1619 I0.0044 J-0.0117
G1 X1.2501 Y0.16 Z-0.4448
X1.2511 Y0.1582 Z-0.4442
X1.2521 Y0.1565 Z-0.4433
X1.2537 Y0.1555 Z-0.4419
X1.2551 Y0.1546 Z-0.4402
X1.2562 Y0.154 Z-0.4382
X1.2569 Y0.1535 Z-0.436
X1.2573 Y0.1533 Z-0.4336
Y0.1532 Z-0.4325
G0 Z-0.0246
X3.0162 Y0.2075
Z-0.42
G1 Z-0.4325 F40
X3.016 Y0.2078 Z-0.4353
X3.0154 Y0.2085 Z-0.4379
X3.0145 Y0.2096 Z-0.4403
X3.0133 Y0.2112 Z-0.4423
X3.0118 Y0.213 Z-0.4438
X3.0101 Y0.2151 Z-0.4447
X3.0084 Y0.2172 Z-0.445
G3 X2.9836 Y0.2357 I-0.0485 J-0.0391
G1 X2.9636 Y0.2431
X2.9436 Y0.2498
X2.937 Y0.2518
X2.7905 Y0.2934
X2.7838 Y0.2952
X2.7638 Y0.3005
X2.7572 Y0.302
X2.6373 Y0.3259
G3 X2.4913 Y0.3368 I-0.133 J-0.7982
G1 X2.4619 Y0.3372
X2.4326 Y0.3374
X2.3739 Y0.3375
X2.0806
X1.8235
X1.8227
X1.822 Y0.3374
X1.8212 Y0.3373
X1.8048 Y0.3343
X1.7959 Y0.3326
X1.645 Y0.3024
X1.6383 Y0.301
X1.625 Y0.2977
X1.6183 Y0.2959
X1.4814 Y0.257
G3 X1.473 Y0.2425 I0.0038 J-0.0119
G1 X1.474 Y0.2406 Z-0.4448
X1.4749 Y0.2387 Z-0.4442
X1.4758 Y0.237 Z-0.4433
X1.4774 Y0.2358 Z-0.4419
X1.4787 Y0.2349 Z-0.4402
X1.4798 Y0.2342 Z-0.4382
X1.4805 Y0.2337 Z-0.436
X1.4808 Y0.2334 Z-0.4336
X1.4809 Z-0.4325
G0 Z-0.0246
X2.674 Y0.3032
Z-0.42
G1 Z-0.4325 F40
X2.6738 Y0.3034 Z-0.4353
X2.6731 Y0.304 Z-0.4379
X2.672 Y0.305 Z-0.4403
X2.6705 Y0.3063 Z-0.4423
X2.6687 Y0.3079 Z-0.4438
X2.6668 Y0.3097 Z-0.4447
X2.6647 Y0.3116 Z-0.445
G3 X2.6373 Y0.3259 I-0.0417 J-0.0463
G1 X2.584 Y0.3366
G3 X2.4042 Y0.3582 I-1.0925 J-8.3105
G1 X2.3842 Y0.3601
X2.3776 Y0.3604
X2.2044 Y0.3673
X2.1844 Y0.3668
X2.1778 Y0.3666
X2.0312 Y0.3608
X2.0246 Y0.3605
X2.0037 Y0.3592
X1.9913 Y0.3578
X1.8248 Y0.3379
X1.8212 Y0.3373
G3 X1.8114 Y0.3251 I0.0027 J-0.0122
G1 Y0.3246
Y0.3241
X1.8115 Y0.3236
X1.8123 Y0.3216 Z-0.4448
X1.813 Y0.3197 Z-0.4442
X1.8137 Y0.3179 Z-0.4433
X1.8152 Y0.3166 Z-0.4419
X1.8164 Y0.3156 Z-0.4402
X1.8174 Y0.3147 Z-0.4382
X1.818 Y0.3142 Z-0.436
X1.8184 Y0.3139 Z-0.4336
Y0.3138 Z-0.4325
G0 Z-0.0246
X0.7206 Y0.1354
Z-0.42
G1 Z-0.4325 F40
X0.7204 Y0.1356 Z-0.4353
X0.7198 Y0.1363 Z-0.4379
X0.7188 Y0.1374 Z-0.4403
X0.7174 Y0.1388 Z-0.4423
X0.7158 Y0.1406 Z-0.4438
X0.714 Y0.1425 Z-0.4447
X0.7121 Y0.1445 Z-0.445
G3 X0.686 Y0.1611 I-0.0454 J-0.0427
G1 X0.6793 Y0.163
X0.6727 Y0.1653
G2 X0.5636 Y0.2126 I1.1627 J2.829
G1 X0.5417 Y0.2261
X0.526 Y0.2347
X0.5038 Y0.2432
X0.4753 Y0.2499
G3 X0.3876 Y0.2565 I-0.1026 J-0.7796
G1 X0.3809 Y0.2597
X0.3696 Y0.2691
X0.3535 Y0.2936
X0.3458 Y0.3219
X0.3419 Y0.351
X0.3398 Y0.3802
Y0.3821
X0.3393 Y0.385
X0.3383 Y0.3877
X0.3366 Y0.39
G3 X0.3198 Y0.3912 I-0.009 J-0.0086
G1 X0.3185 Y0.3895 Z-0.4448
X0.3173 Y0.3879 Z-0.4442
X0.3161 Y0.3863 Z-0.4433
X0.3157 Y0.3843 Z-0.4419
X0.3153 Y0.3826 Z-0.44
X0.3151 Y0.3814 Z-0.4378
Y0.3805 Z-0.4352
Y0.3802 Z-0.4325
G0 Z-0.0246
X0.5682 Y0.192
Z-0.42
G1 Z-0.4325 F40
X0.5681 Y0.1923 Z-0.4353
X0.5677 Y0.1931 Z-0.4379
X0.567 Y0.1944 Z-0.4403
X0.5661 Y0.1962 Z-0.4423
X0.565 Y0.1983 Z-0.4438
X0.5637 Y0.2006 Z-0.4447
X0.5624 Y0.2031 Z-0.445
G3 X0.5417 Y0.2261 I-0.0552 J-0.0289
G1 X0.4795 Y0.2644
G2 X0.4396 Y0.2942 I0.1233 J0.2069
G1 X0.3858 Y0.3392
G2 X0.3581 Y0.3659 I0.1187 J0.1511
G1 X0.3047 Y0.4258
X0.2997 Y0.4316
X0.2864 Y0.4483
X0.2833 Y0.4524
X0.2555 Y0.4946
G3 X0.2391 Y0.4982 I-0.0102 J-0.0072
G1 X0.2375 Y0.4967 Z-0.4448
X0.236 Y0.4953 Z-0.4442
X0.2346 Y0.4939 Z-0.4433
X0.2341 Y0.4921 Z-0.4419
X0.2336 Y0.4905 Z-0.4402
X0.2332 Y0.4893 Z-0.4382
X0.2329 Y0.4885 Z-0.436
X0.2328 Y0.488 Z-0.4336
Z-0.4325
G0 Z-0.0246
X-0.0098 Y-0.1331
Z-0.4338
G1 Z-0.525 F40
G3 X0 Y-0.0651 I-0.3091 J0.0792
G1 Y-0.0614
X0.0082 Y-0.0332
G3 X0.0167 Y0.0836 I-0.6498 J0.1058
X0.0175 Y0.2596 I-9.4631 J0.1315
G1 Y1.8913
X0.0189 Y1.8947
X0.0291 Y1.9052
X0.0547 Y1.9197
X0.0833 Y1.9262
G2 X0.2004 Y1.932 I0.1068 J-0.9604
G1 X0.2297 Y1.9323
X0.259 Y1.9324
X0.3177 Y1.9325
X0.8164
X2.019
X4.0137
X4.8167
X4.8201 Y1.9311
X4.8305 Y1.9207
X4.8448 Y1.8951
X4.8512 Y1.8665
G2 X4.857 Y1.7494 I-0.968 J-0.1068
G1 X4.8573 Y1.7201
X4.8574 Y1.6907
X4.8575 Y1.6321
Y1.1334
Y0.7521
Y0.0591
X4.8561 Y0.0557
X4.846 Y0.045
X4.8206 Y0.0304
X4.792 Y0.0239
G2 X4.6749 Y0.018 I-0.1068 J0.9529
G1 X4.6455 Y0.0177
X4.6162 Y0.0176
X4.5575 Y0.0175
X4.0882
X3.5895
X1.5949
X0.1356
X0.1322 Y0.0189
X0.122 Y0.0295
X0.1087 Y0.0556
X0.1029 Y0.0844
G2 X0.0979 Y0.2016 I1.0328 J0.1023
G1 X0.0977 Y0.2309
X0.0975 Y0.2896
Y0.5242
Y1.8039
X0.1004 Y1.8106
X0.11 Y1.8217
X0.1347 Y1.8374
X0.1631 Y1.8448
G2 X0.2802 Y1.8518 I0.1085 J-0.8233
G1 X0.3095 Y1.8522
X0.3388 Y1.8523
X0.3975 Y1.8525
X0.6028
X0.7788
X2.7735
X4.7278
X4.7347 Y1.8501
X4.7461 Y1.8408
X4.7622 Y1.8163
X4.7696 Y1.7879
G2 X4.7768 Y1.6709 I-0.8092 J-0.1085
G1 X4.7772 Y1.6416
X4.7773 Y1.6123
X4.7775 Y1.5536
Y1.3483
Y0.1456
X4.7746 Y0.1388
X4.7648 Y0.1279
X4.7399 Y0.1124
X4.7115 Y0.1051
G2 X4.5945 Y0.0981 I-0.1085 J0.8315
G1 X4.5652 Y0.0978
X4.5358 Y0.0977
X4.5065 Y0.0976
X4.4185 Y0.0975
X2.5118
X0.5172
X0.2275
X0.2239 Y0.0981
X0.2175 Y0.1017
X0.2069 Y0.1118
X0.1918 Y0.137
X0.1848 Y0.1655
G2 X0.1781 Y0.2825 I0.8645 J0.1081
G1 X0.1778 Y0.3118
X0.1776 Y0.3412
X0.1775 Y0.3998
Y0.6386
X0.1774 Y0.6405
X0.177 Y0.6422
X0.1763 Y0.6439
G2 X0.1663 Y0.6721 I0.1569 J0.0714
G1 X0.1423 Y0.752
X0.1404 Y0.7586
X0.1373 Y0.772
X0.1357 Y0.7786
X0.123 Y0.8652
X0.1199 Y0.8875
G2 X0.1196 Y0.9983 I3.0386 J0.0642
G1 X0.1206 Y1.0183
X0.1343 Y1.1115
G2 X0.1434 Y1.1514 I0.199 J-0.0245
G1 X0.1599 Y1.2065
G3 X0.1759 Y1.3223 I-0.4184 J0.1171
X0.1775 Y1.4983 I-5.8738 J0.1398
G1 Y1.722
X0.1801 Y1.7288
X0.1893 Y1.7403
X0.2137 Y1.7566
X0.242 Y1.7642
X0.2711 Y1.7682
G2 X0.447 Y1.7722 I0.1381 J-2.1912
G1 X0.535 Y1.7725
X0.8325
X0.8335 Y1.7726
X0.9057 Y1.7809
X0.9124 Y1.7815
G2 X1.0323 Y1.7781 I-0.0034 J-2.2114
G3 X1.2082 Y1.7728 I0.1498 J2.0562
G1 X1.2668 Y1.7725
X1.5602
X3.0268
X3.3305
X3.3312
X3.332 Y1.7726
X3.3327 Y1.7727
X3.3583 Y1.7772
X3.3632 Y1.7778
X3.3832 Y1.7788
X3.4698 Y1.7815
G2 X3.5097 Y1.7791 I0.0053 J-0.2486
G3 X3.7149 Y1.7728 I0.1671 J2.0873
G1 X3.8029 Y1.7725
X4.6462
X4.6497 Y1.7714
X4.6561 Y1.7679
X4.6669 Y1.7579
X4.6823 Y1.7329
X4.6896 Y1.7045
G2 X4.6968 Y1.5875 I-0.8189 J-0.109
X4.6975 Y1.2942 I-22.6279 J-0.1996
G1 Y0.9422
Y0.2272
X4.6946 Y0.2205
X4.6852 Y0.2092
X4.6606 Y0.1932
X4.6323 Y0.1856
G2 X4.5153 Y0.1782 I-0.1091 J0.7929
X4.2513 Y0.1775 I-0.1847 J19.54
G1 X3.7585
X3.7568 Y0.1774
X3.7551 Y0.177
X3.7535 Y0.1765
G2 X3.7095 Y0.1597 I-0.1423 J0.3067
G1 X3.6229 Y0.1366
X3.6029 Y0.1318
G2 X3.4897 Y0.1188 I-0.9331 J7.5916
G1 X3.4764 Y0.1186
X3.4698 Y0.1185
X3.3832 Y0.1212
X3.3632 Y0.1222
G2 X3.25 Y0.1422 I0.5232 J3.3055
G1 X3.2353 Y0.1462
X3.23 Y0.1479
X3.1967 Y0.159
X3.1684 Y0.1669
X3.1396 Y0.1719
G3 X2.9931 Y0.1771 I-0.1209 J-1.3485
G1 X2.9637 Y0.1774
X2.9051 Y0.1775
X2.2597
X1.2607
X1.2594 Y0.1774
X1.2581 Y0.1772
X1.2568 Y0.1769
X1.1655 Y0.1464
X1.1588 Y0.1443
X1.1522 Y0.1427
X1.1358 Y0.1395
X1.0523 Y0.1246
X1.0456 Y0.1236
X1.0256 Y0.1214
X0.939 Y0.1188
G2 X0.8924 Y0.1207 I-0.0145 J0.2122
G1 X0.8125 Y0.1298
X0.8058 Y0.1307
X0.7859 Y0.1343
G2 X0.686 Y0.1611 I0.8807 J3.4852
G3 X0.5699 Y0.176 I-0.1152 J-0.4364
X0.3096 Y0.1774 I-0.178 J-9.3627
G1 X0.306 Y0.1783
X0.2995 Y0.1817
X0.2885 Y0.1914
X0.2729 Y0.2162
X0.2654 Y0.2446
G2 X0.2582 Y0.3616 I0.8103 J0.109
G3 X0.2573 Y0.4901 I-10.1289 J-0.0033
G1 X0.2566 Y0.4924
X0.2555 Y0.4946
X0.2263 Y0.539
X0.216 Y0.5589
X0.1763 Y0.6439
G2 X0.1661 Y0.6731 I0.1526 J0.0701
G1 X0.1423 Y0.752
X0.1404 Y0.7586
X0.1373 Y0.772
X0.1357 Y0.7786
X0.123 Y0.8652
X0.1199 Y0.8875
G2 X0.1201 Y1.0116 I2.1844 J0.0589
G1 X0.1206 Y1.0183
X0.1333 Y1.1048
G2 X0.1511 Y1.1768 I0.3553 J-0.0497
G1 X0.1599 Y1.2065
G2 X0.177 Y1.258 I0.3424 J-0.0856
G1 X0.2176 Y1.3445
X0.2198 Y1.3485
X0.2264 Y1.3604
X0.2373 Y1.3822
X0.2458 Y1.4073
X0.2513 Y1.4361
G3 X0.257 Y1.5532 I-1.0268 J0.1085
G1 X0.2573 Y1.5826
X0.2574 Y1.6119
Y1.6412
X0.2598 Y1.6482
X0.2688 Y1.6598
X0.2931 Y1.6763
X0.3213 Y1.6841
X0.3504 Y1.688
G2 X0.5263 Y1.6922 I0.1383 J-2.1449
G1 X0.5718 Y1.6925
X0.5735 Y1.6926
X0.5752 Y1.6929
X0.5768 Y1.6935
G2 X0.6793 Y1.7373 I1.8281 J-4.1383
G1 X0.6993 Y1.7427
X0.7792 Y1.764
G2 X0.8335 Y1.7725 I0.0807 J-0.336
G1 X0.836 Y1.7731
X0.8384 Y1.7742
X0.8404 Y1.7757
X0.8422 Y1.7776
X0.844 Y1.7796
X0.8462 Y1.7812
X0.8487 Y1.7822
X0.8501 Y1.7825 Z-0.5249
X0.8514 Y1.7827 Z-0.5247
X0.8541 Y1.7829 Z-0.5238
X0.8564 Y1.783 Z-0.5223
X0.8584 Y1.7832 Z-0.5203
X0.8599 Y1.7833 Z-0.5179
X0.8608 Z-0.5153
X0.8611 Y1.7834 Z-0.5125
G0 Z-0.0246
X0.1935 Y1.3325
Z-0.5
G1 Z-0.5125 F40
X0.1938 Y1.3327 Z-0.5153
X0.1946 Y1.3332 Z-0.5179
X0.1959 Y1.3339 Z-0.5203
X0.1976 Y1.3349 Z-0.5223
X0.1996 Y1.3361 Z-0.5238
X0.2019 Y1.3374 Z-0.5247
X0.2043 Y1.3388 Z-0.525
G3 X0.2264 Y1.3604 I-0.0311 J0.054
G1 X0.2287 Y1.3644
X0.2331 Y1.3714
X0.2811 Y1.4443
X0.2864 Y1.4523
X0.2906 Y1.4576
X0.2962 Y1.4643
X0.3048 Y1.4755
X0.3134 Y1.4906
X0.322 Y1.5119
X0.3292 Y1.5404
X0.3311 Y1.5549
X0.3319 Y1.5622
X0.3351 Y1.5688
X0.3445 Y1.5801
X0.3689 Y1.5963
X0.3972 Y1.604
X0.4263 Y1.608
X0.4396 Y1.6089
X0.4422 Y1.6094
X0.4446 Y1.6104
X0.4467 Y1.6118
G3 X0.4485 Y1.6285 I-0.0084 J0.0093
G1 X0.4468 Y1.6299 Z-0.5248
X0.4452 Y1.6312 Z-0.5242
X0.4437 Y1.6324 Z-0.5233
X0.442 Y1.6328 Z-0.5221
X0.4405 Y1.6332 Z-0.5206
X0.4393 Y1.6334 Z-0.5188
X0.4384 Y1.6336 Z-0.5169
X0.4378 Z-0.5147
X0.4376 Z-0.5125
G0 Z-0.0246
X0.2586 Y1.4432
Z-0.5
G1 Z-0.5125 F40
X0.2589 Y1.4433 Z-0.5153
X0.2598 Y1.4436 Z-0.5179
X0.2612 Y1.4441 Z-0.5203
X0.263 Y1.4448 Z-0.5223
X0.2653 Y1.4455 Z-0.5238
X0.2678 Y1.4464 Z-0.5247
X0.2704 Y1.4473 Z-0.525
G3 X0.2962 Y1.4643 I-0.0203 J0.0589
G2 X0.3672 Y1.5442 I2.3273 J-1.996
G1 X0.373 Y1.5496
G2 X0.4661 Y1.6274 I1.5512 J-1.7633
G1 X0.4715 Y1.6307
X0.5461 Y1.6766
X0.5661 Y1.6887
X0.5728 Y1.6917
X0.5768 Y1.6935
G3 X0.5831 Y1.7091 I-0.0055 J0.0112
G1 X0.5818 Y1.7109 Z-0.5248
X0.5807 Y1.7126 Z-0.5242
X0.5795 Y1.7142 Z-0.5233
X0.5778 Y1.7151 Z-0.5219
X0.5764 Y1.7158 Z-0.5202
X0.5752 Y1.7164 Z-0.5182
X0.5744 Y1.7168 Z-0.516
X0.574 Y1.717 Z-0.5136
Z-0.5125
G0 Z-0.0246
X1.004 Y1.7895
Z-0.5125
G1 Z-0.525 F40
G3 X1.0323 Y1.7779 I0.0372 J0.05
G1 X1.0456 Y1.7764
G2 X1.1527 Y1.7572 I-0.4306 J-2.7087
X1.2736 Y1.7173 I-0.7043 J-2.3323
G1 X1.2854 Y1.7129
X1.3133 Y1.7041
X1.3421 Y1.6986
G3 X1.4593 Y1.693 I0.1083 J1.0382
G1 X1.4886 Y1.6927
X1.5179 Y1.6926
X1.5766 Y1.6925
X2.0459
X3.0574
X3.0589 Y1.6926
X3.0603 Y1.6928
X3.0618 Y1.6933
G2 X3.2499 Y1.758 I0.9923 J-2.579
G1 X3.2566 Y1.7591
X3.3327 Y1.7727
G3 X3.341 Y1.7783 I-0.0022 J0.0123
G1 X3.3427 Y1.7804
X3.3448 Y1.782
X3.3472 Y1.7832
X3.3489 Y1.7836 Z-0.5249
X3.3506 Y1.784 Z-0.5245
X3.353 Y1.7842 Z-0.5235
X3.3553 Y1.7843 Z-0.522
X3.3571 Y1.7845 Z-0.52
X3.3585 Y1.7846 Z-0.5177
X3.3593 Y1.7847 Z-0.5152
X3.3596 Z-0.5125
G0 Z-0.0246
X1.2527 Y1.7411
Z-0.5
G1 Z-0.5125 F40
X1.2529 Y1.7409 Z-0.5153
X1.2535 Y1.7402 Z-0.5179
X1.2544 Y1.739 Z-0.5203
X1.2557 Y1.7375 Z-0.5223
X1.2572 Y1.7356 Z-0.5238
X1.2588 Y1.7336 Z-0.5247
X1.2606 Y1.7314 Z-0.525
G3 X1.2854 Y1.7129 I0.0485 J0.0391
G1 X1.4452 Y1.6536
X1.4585 Y1.6495
X1.4652 Y1.6476
X1.5318 Y1.6287
G3 X1.6479 Y1.6139 I0.1156 J0.4453
X1.8532 Y1.6125 I0.1548 J7.454
G1 X2.8094
X2.8105 Y1.6126
X2.8117 Y1.6127
X2.8128 Y1.613
X2.937 Y1.6482
X2.9436 Y1.6502
X2.9636 Y1.6569
X3.0618 Y1.6933
G3 X3.069 Y1.7085 I-0.0048 J0.0116
G1 X3.0679 Y1.7103 Z-0.5248
X3.0668 Y1.7121 Z-0.5242
X3.0658 Y1.7137 Z-0.5233
X3.0641 Y1.7147 Z-0.5219
X3.0627 Y1.7155 Z-0.5202
X3.0616 Y1.7162 Z-0.5182
X3.0609 Y1.7166 Z-0.516
X3.0605 Y1.7168 Z-0.5136
X3.0604 Y1.7169 Z-0.5125
G0 Z-0.0246
X1.497 Y1.6543
Z-0.5
G1 Z-0.5125 F40
X1.4972 Y1.654 Z-0.5153
X1.4979 Y1.6534 Z-0.5179
X1.4989 Y1.6523 Z-0.5203
X1.5002 Y1.6508 Z-0.5223
X1.5019 Y1.6491 Z-0.5238
X1.5037 Y1.6472 Z-0.5247
X1.5056 Y1.6452 Z-0.525
G3 X1.5318 Y1.6287 I0.0452 J0.0428
G1 X1.6185 Y1.6041
X1.625 Y1.6023
X1.6459 Y1.5974
X1.7982 Y1.567
X1.8048 Y1.5657
X1.8248 Y1.5621
X1.9979 Y1.5414
X2.0046 Y1.5407
G3 X2.1844 Y1.5332 I0.3544 J6.3387
G1 X2.2044 Y1.5327
X2.3776 Y1.5396
X2.3842 Y1.5399
X2.4042 Y1.5417
G3 X2.584 Y1.5634 I-0.9876 J8.9633
G1 X2.7572 Y1.598
X2.7638 Y1.5995
X2.7838 Y1.6048
X2.8128 Y1.613
G3 X2.8212 Y1.6275 I-0.0038 J0.0119
G1 X2.8202 Y1.6294 Z-0.5248
X2.8193 Y1.6313 Z-0.5242
X2.8184 Y1.633 Z-0.5233
X2.8168 Y1.6342 Z-0.5219
X2.8155 Y1.6351 Z-0.5202
X2.8144 Y1.6358 Z-0.5182
X2.8137 Y1.6363 Z-0.516
X2.8134 Y1.6366 Z-0.5136
X2.8133 Z-0.5125
G0 Z-0.0246
X3.4815 Y1.791
Z-0.5125
G1 Z-0.525 F40
G3 X3.5097 Y1.7791 I0.0375 J0.0498
G1 X3.5896 Y1.7699
X3.5963 Y1.7691
X3.6029 Y1.7682
G2 X3.7206 Y1.7372 I-0.5774 J-2.4341
G1 X3.7295 Y1.7337
X3.7371 Y1.7306
X3.768 Y1.7173
X3.7955 Y1.7071
X3.8241 Y1.7002
G3 X3.9411 Y1.6932 I0.1058 J0.7862
G1 X3.9704 Y1.6928
X3.9997 Y1.6926
X4.0584 Y1.6925
X4.3224
X4.5644
X4.568 Y1.6918
X4.5746 Y1.6886
X4.5857 Y1.6791
X4.6017 Y1.6545
X4.6093 Y1.6261
G2 X4.6168 Y1.5091 I-0.7905 J-0.1093
X4.6175 Y1.3331 I-11.8133 J-0.136
G1 Y0.5412
Y0.3102
X4.6168 Y0.3066
X4.6135 Y0.3
X4.6038 Y0.289
X4.5791 Y0.2732
X4.5508 Y0.2656
G2 X4.4338 Y0.2582 I-0.1093 J0.7972
X4.2578 Y0.2575 I-0.136 J11.9445
G1 X3.9129
X3.9106 Y0.2573
X3.9084 Y0.2567
X3.9063 Y0.2556
X3.8427 Y0.2165
G2 X3.8094 Y0.2005 I-0.115 J0.1974
G1 X3.7535 Y0.1765
G3 X3.7471 Y0.161 I0.0053 J-0.0113
G1 X3.7483 Y0.1592 Z-0.5248
X3.7495 Y0.1575 Z-0.5242
X3.7505 Y0.1559 Z-0.5233
X3.7523 Y0.155 Z-0.5219
X3.7537 Y0.1542 Z-0.5202
X3.7548 Y0.1536 Z-0.5182
X3.7556 Y0.1532 Z-0.516
X3.756 Y0.153 Z-0.5136
X3.7561 Z-0.5125
G0 Z-0.0246
X3.7369 Y1.7471
Z-0.5
G1 Z-0.5125 F40
X3.7371 Y1.7469 Z-0.5153
X3.7376 Y1.7461 Z-0.5179
X3.7385 Y1.7449 Z-0.5203
X3.7397 Y1.7433 Z-0.5223
X3.741 Y1.7414 Z-0.5238
X3.7426 Y1.7392 Z-0.5247
X3.7442 Y1.737 Z-0.525
G3 X3.768 Y1.7173 I0.0504 J0.0366
G1 X3.8227 Y1.6938
X3.8419 Y1.684
X3.9026 Y1.6466
X3.9232 Y1.6354
X3.9454 Y1.6268
X3.974 Y1.6201
G3 X4.091 Y1.6132 I0.1062 J0.8026
G1 X4.1203 Y1.6128
X4.1496 Y1.6126
X4.2083 Y1.6125
X4.443
X4.4833
X4.487
X4.4937 Y1.6096
X4.5051 Y1.6003
X4.5214 Y1.5759
X4.5291 Y1.5476
X4.5331 Y1.5186
G2 X4.5372 Y1.3427 I-2.1569 J-0.1385
G1 X4.5375 Y1.2547
Y0.3893
X4.5364 Y0.3858
X4.5329 Y0.3794
X4.523 Y0.3686
X4.4981 Y0.353
X4.4697 Y0.3456
X4.4407 Y0.3418
X4.4114 Y0.3398
G2 X4.1767 Y0.3376 I-0.1731 J6.0669
G1 X4.0167 Y0.3375
X4.0138 Y0.3372
X4.0111 Y0.3362
X4.0087 Y0.3346
X3.9426 Y0.2793
X3.9359 Y0.2743
X3.9293 Y0.2698
X3.9063 Y0.2556
G3 X3.9022 Y0.2394 I0.0069 J-0.0104
G1 X3.9037 Y0.2378 Z-0.5248
X3.9051 Y0.2362 Z-0.5242
X3.9064 Y0.2348 Z-0.5233
X3.9082 Y0.2342 Z-0.5219
X3.9097 Y0.2336 Z-0.5202
X3.911 Y0.2332 Z-0.5182
X3.9118 Y0.2329 Z-0.516
X3.9122 Y0.2328 Z-0.5136
Z-0.5125
G0 Z-0.0246
X3.8761 Y1.6807
Z-0.5
G1 Z-0.5125 F40
X3.8763 Y1.6804 Z-0.5153
X3.8767 Y1.6796 Z-0.5179
X3.8774 Y1.6783 Z-0.5203
X3.8783 Y1.6765 Z-0.5223
X3.8794 Y1.6744 Z-0.5238
X3.8806 Y1.6721 Z-0.5247
X3.8819 Y1.6696 Z-0.525
G3 X3.9026 Y1.6466 I0.0552 J0.0289
G2 X3.9559 Y1.6096 I-0.1443 J-0.264
G1 X3.9959 Y1.5761
X4.0105 Y1.565
X4.0259 Y1.5564
X4.0478 Y1.5477
X4.0763 Y1.5407
G3 X4.1932 Y1.5333 I0.1072 J0.7614
X4.4059 Y1.5325 I0.1524 J13.2536
G1 X4.4129 Y1.5302
X4.4245 Y1.5213
X4.4411 Y1.4971
X4.449 Y1.4688
X4.453 Y1.4398
G2 X4.4572 Y1.2932 I-1.7414 J-0.1229
G1 X4.4574 Y1.2639
X4.4575 Y1.1759
Y0.4719
X4.4574 Y0.4682
X4.4546 Y0.4615
X4.4454 Y0.45
X4.4211 Y0.4337
X4.3928 Y0.4259
X4.3637 Y0.422
G2 X4.1878 Y0.4178 I-0.1385 J2.1469
G1 X4.0998 Y0.4175
X4.0935
X4.09 Y0.417
X4.0868 Y0.4156
X4.0842 Y0.4133
X4.0419 Y0.3659
G2 X4.0086 Y0.3347 I-0.1646 J0.1422
G1 X4.0068 Y0.3327
X4.0055 Y0.3304
X4.0047 Y0.3279
X4.0045 Y0.3252
X4.0048 Y0.3226
X4.0056 Y0.3201
X4.007 Y0.3179
X4.0086 Y0.3165 Z-0.5248
X4.0102 Y0.3152 Z-0.5242
X4.0117 Y0.314 Z-0.5233
X4.0134 Y0.3136 Z-0.5221
X4.0149 Y0.3133 Z-0.5206
X4.0161 Y0.313 Z-0.5188
X4.017 Y0.3128 Z-0.5169
X4.0176 Z-0.5147
X4.0178 Z-0.5125
G0 Z-0.0246
X3.9746 Y1.6137
Z-0.5
G1 Z-0.5125 F40
X3.9747 Y1.6134 Z-0.5153
X3.975 Y1.6125 Z-0.5179
X3.9755 Y1.6111 Z-0.5203
X3.9761 Y1.6092 Z-0.5223
X3.9769 Y1.607 Z-0.5238
X3.9778 Y1.6045 Z-0.5247
X3.9787 Y1.6019 Z-0.525
G3 X3.9959 Y1.5761 I0.0588 J0.0206
G2 X4.0358 Y1.5409 I-0.3232 J-0.4067
G1 X4.0685 Y1.5042
X4.0776 Y1.495
X4.0887 Y1.4865
X4.1041 Y1.4776
X4.1258 Y1.4687
X4.1543 Y1.4614
G3 X4.2712 Y1.4534 I0.1085 J0.724
G1 X4.3005 Y1.4529
X4.3262 Y1.4528
X4.3331 Y1.4503
X4.3447 Y1.4413
X4.3612 Y1.4171
X4.369 Y1.3888
X4.373 Y1.3597
G2 X4.3772 Y1.1838 I-2.1326 J-0.1385
G1 X4.3775 Y1.0958
Y0.5495
X4.3765 Y0.546
X4.373 Y0.5395
X4.3631 Y0.5287
X4.3383 Y0.5131
X4.3099 Y0.5056
G2 X4.1929 Y0.4982 I-0.1094 J0.8029
G1 X4.1636 Y0.4978
X4.1533
X4.1493 Y0.4971
X4.1457 Y0.4952
X4.1429 Y0.4922
X4.1167 Y0.4524
G2 X4.0842 Y0.4133 I-0.2714 J0.193
G1 X4.0829 Y0.4116
X4.082 Y0.4096
X4.0815 Y0.4075
X4.0813 Y0.4053
X4.0815 Y0.4029
X4.0822 Y0.4006
X4.0834 Y0.3984
X4.0849 Y0.3965
X4.0867 Y0.3954 Z-0.5248
X4.0885 Y0.3944 Z-0.5242
X4.0902 Y0.3934 Z-0.5233
X4.0921 Y0.3931 Z-0.5219
X4.0938 Y0.3928 Z-0.5202
X4.0952 Y0.393 Z-0.5178
X4.0961 Y0.3931 Z-0.5152
X4.0964 Z-0.5125
G0 Z-0.0246
X4.0529 Y1.5445
Z-0.5
G1 Z-0.5125 F40
Y1.5442 Z-0.5153
X4.0531 Y1.5432 Z-0.5179
X4.0534 Y1.5418 Z-0.5203
X4.0538 Y1.5398 Z-0.5223
X4.0542 Y1.5375 Z-0.5238
X4.0547 Y1.5349 Z-0.5247
X4.0553 Y1.5322 Z-0.525
G3 X4.0685 Y1.5042 I0.0612 J0.0119
G1 X4.1041 Y1.4643
X4.1096 Y1.4576
X4.1144 Y1.451
X4.1276 Y1.431
X4.1317 Y1.4255
X4.1399 Y1.4169
X4.1513 Y1.408
X4.1666 Y1.399
X4.1884 Y1.3898
X4.2167 Y1.3822
X4.2457 Y1.3779
X4.2526 Y1.3753
X4.2642 Y1.3664
X4.2809 Y1.3422
X4.2888 Y1.314
X4.2929 Y1.2849
G2 X4.2971 Y1.1384 I-1.7128 J-0.1232
G1 X4.2974 Y1.109
X4.2975 Y1.0504
Y0.669
Y0.6287
X4.2949 Y0.6218
X4.2859 Y0.6103
X4.2616 Y0.5938
X4.2333 Y0.586
X4.2043 Y0.582
X4.2017 Y0.5818
X4.1974 Y0.5807
X4.1938 Y0.5782
X4.1913 Y0.5746
X4.1871 Y0.5656
X4.1839 Y0.5589
X4.1737 Y0.539
X4.1429 Y0.4922
G3 X4.1461 Y0.4757 I0.0107 J-0.0065
G1 X4.1481 Y0.4748 Z-0.5248
X4.15 Y0.474 Z-0.5242
X4.1518 Y0.4733 Z-0.5233
X4.1536 Y0.4732 Z-0.5221
X4.1554 Y0.4735 Z-0.5201
X4.1568 Y0.4737 Z-0.5178
X4.1577 Y0.4739 Z-0.5152
X4.1579 Z-0.5125
G0 Z-0.0246
X4.118 Y1.4731
Z-0.5
G1 Z-0.5125 F40
Y1.4728 Z-0.5153
X4.1181 Y1.4718 Z-0.5179
Y1.4703 Z-0.5203
X4.1182 Y1.4684 Z-0.5223
X4.1183 Y1.466 Z-0.5238
X4.1185 Y1.4634 Z-0.5247
X4.1186 Y1.4606 Z-0.525
G3 X4.1276 Y1.431 I0.0622 J0.0029
G1 X4.169 Y1.3682
X4.1714 Y1.3644
X4.1788 Y1.3511
X4.1824 Y1.3445
X4.2228 Y1.2579
X4.2306 Y1.238
G2 X4.2623 Y1.1312 I-2.3369 J-0.7518
X4.2801 Y1.0116 I-3.0137 J-0.5117
X4.2799 Y0.8851 I-2.2983 J-0.0594
G1 X4.275 Y0.8518
X4.2642 Y0.7786
X4.2595 Y0.7586
X4.2576 Y0.752
X4.2337 Y0.6721
X4.2316 Y0.6654
X4.227 Y0.6521
X4.2244 Y0.6455
X4.1913 Y0.5746
G3 X4.1969 Y0.5588 I0.0115 J-0.0049
G1 X4.1989 Y0.5582 Z-0.5248
X4.2009 Y0.5577 Z-0.5242
X4.2028 Y0.5572 Z-0.5233
X4.2047 Y0.5577 Z-0.5219
X4.2063 Y0.5581 Z-0.5202
X4.2076 Y0.5584 Z-0.5181
X4.2084 Y0.5587 Z-0.5159
X4.2088 Y0.5588 Z-0.5135
Z-0.5125
G0 Z-0.0246
X3.2303 Y0.1319
Z-0.5
G1 Z-0.5125 F40
X3.2301 Y0.1321 Z-0.5153
X3.2295 Y0.1328 Z-0.5179
X3.2285 Y0.1339 Z-0.5203
X3.2272 Y0.1354 Z-0.5223
X3.2256 Y0.1372 Z-0.5238
X3.2239 Y0.1392 Z-0.5247
X3.2221 Y0.1413 Z-0.525
G3 X3.1967 Y0.159 I-0.0472 J-0.0407
G1 X3.1434 Y0.1768
X3.1358 Y0.1795
X3.1168 Y0.1863
X2.9836 Y0.2357
X2.9556 Y0.2445
X2.9269 Y0.2507
G3 X2.8098 Y0.257 I-0.1084 J-0.9265
G1 X2.7805 Y0.2573
X2.7512 Y0.2574
X2.6925 Y0.2575
X2.3699
X1.4848
X1.4837 Y0.2574
X1.4825 Y0.2573
X1.4814 Y0.257
X1.4662 Y0.2527
X1.4452 Y0.2464
X1.272 Y0.1822
X1.2645 Y0.1795
X1.2568 Y0.1769
G3 X1.2491 Y0.1619 I0.0044 J-0.0117
G1 X1.2501 Y0.16 Z-0.5248
X1.2511 Y0.1582 Z-0.5242
X1.2521 Y0.1565 Z-0.5233
X1.2537 Y0.1555 Z-0.5219
X1.2551 Y0.1546 Z-0.5202
X1.2562 Y0.154 Z-0.5182
X1.2569 Y0.1535 Z-0.516
X1.2573 Y0.1533 Z-0.5136
Y0.1532 Z-0.5125
G0 Z-0.0246
X3.0162 Y0.2075
Z-0.5
G1 Z-0.5125 F40
X3.016 Y0.2078 Z-0.5153
X3.0154 Y0.2085 Z-0.5179
X3.0145 Y0.2096 Z-0.5203
X3.0133 Y0.2112 Z-0.5223
X3.0118 Y0.213 Z-0.5238
X3.0101 Y0.2151 Z-0.5247
X3.0084 Y0.2172 Z-0.525
G3 X2.9836 Y0.2357 I-0.0485 J-0.0391
G1 X2.9636 Y0.2431
X2.9436 Y0.2498
X2.937 Y0.2518
X2.7905 Y0.2934
X2.7838 Y0.2952
X2.7638 Y0.3005
X2.7572 Y0.302
X2.6373 Y0.3259
G3 X2.4913 Y0.3368 I-0.133 J-0.7982
G1 X2.4619 Y0.3372
X2.4326 Y0.3374
X2.3739 Y0.3375
X2.0806
X1.8235
X1.8227
X1.822 Y0.3374
X1.8212 Y0.3373
X1.8048 Y0.3343
X1.7959 Y0.3326
X1.645 Y0.3024
X1.6383 Y0.301
X1.625 Y0.2977
X1.6183 Y0.2959
X1.4814 Y0.257
G3 X1.473 Y0.2425 I0.0038 J-0.0119
G1 X1.474 Y0.2406 Z-0.5248
X1.4749 Y0.2387 Z-0.5242
X1.4758 Y0.237 Z-0.5233
X1.4774 Y0.2358 Z-0.5219
X1.4787 Y0.2349 Z-0.5202
X1.4798 Y0.2342 Z-0.5182
X1.4805 Y0.2337 Z-0.516
X1.4808 Y0.2334 Z-0.5136
X1.4809 Z-0.5125
G0 Z-0.0246
X2.674 Y0.3032
Z-0.5
G1 Z-0.5125 F40
X2.6738 Y0.3034 Z-0.5153
X2.6731 Y0.304 Z-0.5179
X2.672 Y0.305 Z-0.5203
X2.6705 Y0.3063 Z-0.5223
X2.6687 Y0.3079 Z-0.5238
X2.6668 Y0.3097 Z-0.5247
X2.6647 Y0.3116 Z-0.525
G3 X2.6373 Y0.3259 I-0.0417 J-0.0463
G1 X2.584 Y0.3366
G3 X2.4042 Y0.3582 I-1.0925 J-8.3105
G1 X2.3842 Y0.3601
X2.3776 Y0.3604
X2.2044 Y0.3673
X2.1844 Y0.3668
X2.1778 Y0.3666
X2.0312 Y0.3608
X2.0246 Y0.3605
X2.0037 Y0.3592
X1.9913 Y0.3578
X1.8248 Y0.3379
X1.8212 Y0.3373
G3 X1.8114 Y0.3251 I0.0027 J-0.0122
G1 Y0.3246
Y0.3241
X1.8115 Y0.3236
X1.8123 Y0.3216 Z-0.5248
X1.813 Y0.3197 Z-0.5242
X1.8137 Y0.3179 Z-0.5233
X1.8152 Y0.3166 Z-0.5219
X1.8164 Y0.3156 Z-0.5202
X1.8174 Y0.3147 Z-0.5182
X1.818 Y0.3142 Z-0.516
X1.8184 Y0.3139 Z-0.5136
Y0.3138 Z-0.5125
G0 Z-0.0246
X0.7206 Y0.1354
Z-0.5
G1 Z-0.5125 F40
X0.7204 Y0.1356 Z-0.5153
X0.7198 Y0.1363 Z-0.5179
X0.7188 Y0.1374 Z-0.5203
X0.7174 Y0.1388 Z-0.5223
X0.7158 Y0.1406 Z-0.5238
X0.714 Y0.1425 Z-0.5247
X0.7121 Y0.1445 Z-0.525
G3 X0.686 Y0.1611 I-0.0454 J-0.0427
G1 X0.6793 Y0.163
X0.6727 Y0.1653
G2 X0.5636 Y0.2126 I1.1627 J2.829
G1 X0.5417 Y0.2261
X0.526 Y0.2347
X0.5038 Y0.2432
X0.4753 Y0.2499
G3 X0.3876 Y0.2565 I-0.1026 J-0.7796
G1 X0.3809 Y0.2597
X0.3696 Y0.2691
X0.3535 Y0.2936
X0.3458 Y0.3219
X0.3419 Y0.351
X0.3398 Y0.3802
Y0.3821
X0.3393 Y0.385
X0.3383 Y0.3877
X0.3366 Y0.39
G3 X0.3198 Y0.3912 I-0.009 J-0.0086
G1 X0.3185 Y0.3895 Z-0.5248
X0.3173 Y0.3879 Z-0.5242
X0.3161 Y0.3863 Z-0.5233
X0.3157 Y0.3843 Z-0.5219
X0.3153 Y0.3826 Z-0.52
X0.3151 Y0.3814 Z-0.5178
Y0.3805 Z-0.5152
Y0.3802 Z-0.5125
G0 Z-0.0246
X0.5682 Y0.192
Z-0.5
G1 Z-0.5125 F40
X0.5681 Y0.1923 Z-0.5153
X0.5677 Y0.1931 Z-0.5179
X0.567 Y0.1944 Z-0.5203
X0.5661 Y0.1962 Z-0.5223
X0.565 Y0.1983 Z-0.5238
X0.5637 Y0.2006 Z-0.5247
X0.5624 Y0.2031 Z-0.525
G3 X0.5417 Y0.2261 I-0.0552 J-0.0289
G1 X0.4795 Y0.2644
G2 X0.4396 Y0.2942 I0.1233 J0.2069
G1 X0.3858 Y0.3392
G2 X0.3581 Y0.3659 I0.1187 J0.1511
G1 X0.3047 Y0.4258
X0.2997 Y0.4316
X0.2864 Y0.4483
X0.2833 Y0.4524
X0.2555 Y0.4946
G3 X0.2391 Y0.4982 I-0.0102 J-0.0072
G1 X0.2375 Y0.4967 Z-0.5248
X0.236 Y0.4953 Z-0.5242
X0.2346 Y0.4939 Z-0.5233
X0.2341 Y0.4921 Z-0.5219
X0.2336 Y0.4905 Z-0.5202
X0.2332 Y0.4893 Z-0.5182
X0.2329 Y0.4885 Z-0.516
X0.2328 Y0.488 Z-0.5136
Z-0.5125
G0 Z-0.0246
X-0.0098 Y-0.1331
Z-0.5138
G1 Z-0.605 F40
G3 X0 Y-0.0651 I-0.3091 J0.0792
G1 Y-0.0614
X0.0082 Y-0.0332
G3 X0.0167 Y0.0836 I-0.6498 J0.1058
X0.0175 Y0.2596 I-9.4631 J0.1315
G1 Y1.8913
X0.0189 Y1.8947
X0.0291 Y1.9052
X0.0547 Y1.9197
X0.0833 Y1.9262
G2 X0.2004 Y1.932 I0.1068 J-0.9604
G1 X0.2297 Y1.9323
X0.259 Y1.9324
X0.3177 Y1.9325
X0.8164
X2.019
X4.0137
X4.8167
X4.8201 Y1.9311
X4.8305 Y1.9207
X4.8448 Y1.8951
X4.8512 Y1.8665
G2 X4.857 Y1.7494 I-0.968 J-0.1068
G1 X4.8573 Y1.7201
X4.8574 Y1.6907
X4.8575 Y1.6321
Y1.1334
Y0.7521
Y0.0591
X4.8561 Y0.0557
X4.846 Y0.045
